!!!!SEGMENT: pl-cz--iii-669--001-007_scigalski-franciszek--missa-in-b-et-resurrexit.krn
!!!cenid: 18xx:1112
!!!COM: Ścigalski, Franciszek
!!!COM-rismid: pe30002948
!!!CDT: 1782/01/29-1846/09/27
!!!CNT: Polish
!!!OPR: Missa in B
!!!OTL: Et resurrexit
!!!OMV: 007
!!!PDT:
!!!AGN: Sacred; Mass
!!!SMS-siglum: PL-CZ
!!!SMS-shelfmark: III-669
!!!SMS-shelfwork: 001-007 M
!!!SMS-variant:
!!!SMS-altvar:
!!!NIFC-rismid: 300001314
!!!URL-scan: http://repozytorium.nifc.pl/skany/pl-cz-nut--iii-669
!!!ONB-nifc: UWAGA: części Mszy: Kyrie, Gloria, Qui tollis, Quoniam, Credo, Et incarnatus, Et resurrexit, Sanctus, Benedictus, Agnus Dei, Dona nobis
!!!OMD: Allegro
!!!AIN: 1 alto 1 bass 2 clars 2 cor 1 fagot 1 flt 1 organ 1 soprn 1 tenor 1 timpa 1 tromp 1 viola 2 violn
!!!key: B-
**kern	**fba	**dynam	**kern	**kern	**kern	**kern	**text	**kern	**text	**kern	**text	**kern	**text	**kern	**kern	**kern	**kern	**kern	**kern	**kern	**kern	**dynam
*part16	*part16	*part16	*part15	*part14	*part13	*part12	*part12	*part11	*part11	*part10	*part10	*part9	*part9	*part8	*part7	*part6	*part5	*part4	*part3	*part2	*part1	*part1
*staff16	*staff16	*	*staff15	*staff14	*staff13	*staff12	*staff12	*staff11	*staff11	*staff10	*staff10	*staff9	*staff9	*staff8	*staff7	*staff6	*staff5	*staff4	*staff3	*staff2	*staff1	*
*I"Organo	*	*	*I"Alto Viola	*I"Violino 2.do	*I"Violino. Primo.	*I"Baſso !	*	*I"Tenore	*	*I"Alto	*	*I"Canto	*	*I"Tympano. in B.F.	*I"Claryino Princypalo	*I"Corno Sekundos in B	*I"Corno Prymo in B	*I"Fagotto Oblgato	*I"Clarinetto 2do in B	*I"Clarinetto 1mo in B	*I"Flauto Obligato.	*
*I'org	*	*	*I'vla	*I'vl 2	*I'vl 1	*I'B	*	*I'T	*	*I'A	*	*I'S	*	*I'timp	*I'clno princ	*I'cor 2	*I'cor 1	*I'fag obl	*I'cl 2	*I'cl 1	*I'fl obl	*
*Iorgan	*	*	*Iviola	*Ivioln	*Ivioln	*Ibass	*	*Itenor	*	*Ialto	*	*Isoprn	*	*Itimpa	*Itromp	*Icor	*Icor	*Ifagot	*Iclars	*Iclars	*Iflt	*
*ICklav	*	*	*ICstr	*ICstr	*ICstr	*ICvox	*	*ICvox	*	*ICvox	*	*ICvox	*	*ICidio	*ICbras	*ICbras	*ICbras	*ICww	*ICww	*ICww	*ICww	*
*clefF4	*	*	*clefC3	*clefG2	*clefG2	*clefF4	*	*clefC4	*	*clefC3	*	*clefC1	*	*clefF4	*clefG2	*clefG2	*clefG2	*clefF4	*clefG2	*clefG2	*clefG2	*
*	*	*	*	*	*	*	*	*	*	*	*	*	*	*	*ITrd1c2	*ITrd1c2	*ITrd1c2	*	*ITrd1c2	*ITrd1c2	*	*
*	*	*	*ok[e-b-]	*	*	*	*	*ok[]	*	*	*	*	*	*	*	*	*	*ok[]	*	*	*ok[e-b-]	*
*k[b-e-]	*	*	*k[b-e-]	*k[b-e-]	*k[b-e-]	*k[b-e-]	*	*k[b-e-]	*	*k[b-e-]	*	*k[b-e-]	*	*k[b-e-]	*k[b-e-]	*k[b-e-]	*k[b-e-]	*k[b-e-]	*k[b-e-]	*k[b-e-]	*k[b-e-]	*
*B-:	*	*	*B-:	*B-:	*B-:	*B-:	*	*B-:	*	*B-:	*	*B-:	*	*B-:	*B-:	*B-:	*B-:	*B-:	*B-:	*B-:	*B-:	*
*M3/4	*	*	*M3/4	*M3/4	*M3/4	*M3/4	*	*M3/4	*	*M3/4	*	*M3/4	*	*M3/4	*M3/4	*M3/4	*M3/4	*M3/4	*M3/4	*M3/4	*M3/4	*
*all\right	*	*	*all\right	*all\right	*all\right	*all\right	*	*all\right	*	*	*	*all\right	*	*all\right	*all\right	*all\right	*all\right	*all\right	*all\right	*all\right	*all\right	*
=1	=1	=1	=1	=1	=1	=1	=1	=1	=1	=1	=1	=1	=1	=1	=1	=1	=1	=1	=1	=1	=1	=1
*2\right	*	*	*2\right	*2\right	*2\right	*	*	*	*	*	*	*	*	*	*2\right	*2\right	*2\right	*2\right	*2\right	*2\right	*2\right	*
!	!	!	!	!	!	!LO:TX:a:t=2.	!	!	!	!LO:TX:b:t=2.	!	!LO:TX:a:t=2.	!	!	!	!	!LO:TX:a:t=allo	!	!	!	!	!
!LO:TX:a:t=Allegro	!	!LO:DY:b:t=for&colon;:rj	!LO:TX:a:t=Allegro	!LO:TX:a:t=Allegro	!LO:TX:a:t=Allegro	!LO:TX:a:t=Allegro	!	!LO:TX:a:t=2	!	!LO:TX:a:t=Allegro.	!	!LO:TX:a:t=Allegro	!	!	!LO:TX:a:t=Allogro	!	!	!LO:TX:a:t=Allegro&colon;	!LO:TX:a:t=Allego.	!	!LO:TX:a:t=Allo.	!
2B-'\	.	f	2b-\	2b-\	2bb-\	1.r	.	1.r	.	1.r	.	1.r	.	4Ra/	2b-\	2b-\	2b-\	2B-\	2b-\	2bb-\	2bb-\	.
.	.	.	.	.	.	.	.	.	.	.	.	.	.	4r	.	.	.	.	.	.	.	.
!	!	!	!	!	!	!	!	!	!	!	!	!	!	!	!	!	!	!	!	!	!	!LO:DY:b:t=for
4F'\	.	.	4f\	4f/	4ff\	.	.	.	.	.	.	.	.	4Re/	4f/	4f/	4f/	4F\	4f/	4ff\	4ff\	f
=2	=2	=2	=2	=2	=2	=2	=2	=2	=2	=2	=2	=2	=2	=2	=2	=2	=2	=2	=2	=2	=2	=2
8D'/L	.	.	8d/L	8d/L	8dd\L	.	.	.	.	.	.	.	.	8Ra/L	8d/L	8d/L	8f/L	8D\L	8d/L	8dd\L	8dd\L	.
8BB-'/J	.	.	8B-/J	8B-/J	8b-\J	.	.	.	.	.	.	.	.	8Ra/J	8B-/J	8B-/J	8B-/J	8BB-\J	8B-/J	8b-\J	8b-\J	.
8BB-'/L	.	.	8B-/L	8B-/L	8b-\L	.	.	.	.	.	.	.	.	4Ra/	4B-/	4B-/	4B-/	4BB-\	4B-/	4b-\	4b-\	.
16C'/L	.	.	16c/L	16c/L	16cc\L	.	.	.	.	.	.	.	.	.	.	.	.	.	.	.	.	.
16D'/JJ	.	.	16d/JJ	16d/JJ	16dd\JJ	.	.	.	.	.	.	.	.	.	.	.	.	.	.	.	.	.
16E-'\LL	.	.	16e-\LL	16e-/LL	16ee-\LL	.	.	.	.	.	.	.	.	4r	4r	4r	4r	4r	4r	4r	4r	.
!	!	!	!	!	!LO:TX:t=P:korekta:problem	!	!	!	!	!	!	!	!	!	!	!	!	!	!	!	!	!
16F'\	.	.	16f\	16f/	16ff\	.	.	.	.	.	.	.	.	.	.	.	.	.	.	.	.	.
16G'\	.	.	16g\	16g/	16gg\	.	.	.	.	.	.	.	.	.	.	.	.	.	.	.	.	.
16A'\JJ	.	.	16a\JJ	16a/JJ	16aa\JJ	.	.	.	.	.	.	.	.	.	.	.	.	.	.	.	.	.
=3	=3	=3	=3	=3	=3	=3	=3	=3	=3	=3	=3	=3	=3	=3	=3	=3	=3	=3	=3	=3	=3	=3
4B-'\	.	.	4b-\	16b-\LL	16bb-\LL	4B-\	Et	4d\	Et	4f\	Et	4dd\	Et	4r	8b-\L	4b-\	4dd\	4B-\	4f/	4dd\	4bb-\	.
.	.	.	.	16dd\	16ddd\	.	.	.	.	.	.	.	.	.	.	.	.	.	.	.	.	.
.	.	.	.	16f\	16ff\	.	.	.	.	.	.	.	.	.	16b-\L	.	.	.	.	.	.	.
.	.	.	.	16f\JJ	16ff\JJ	.	.	.	.	.	.	.	.	.	16b-\JJ	.	.	.	.	.	.	.
!	!	!	!	!LO:LB:g=original	!	!	!	!	!	!	!	!	!	!	!	!	!	!	!	!	!	!
=-	=-	=-	=-	=-	=-	=-	=-	=-	=-	=-	=-	=-	=-	=-	=-	=-	=-	=-	=-	=-	=-	=-
4D\	8	.	4f\	4f/ 4dd	16ff\LL	4B-\	re-	4d\	re-	4f\	re-	4dd\	re-	4Ra/	8b-\L	4b-\	4dd\	4d\	8f/L	4dd\	4ddd\	.
.	.	.	.	.	16bb-\	.	.	.	.	.	.	.	.	.	.	.	.	.	.	.	.	.
.	.	.	.	.	16dd\	.	.	.	.	.	.	.	.	.	8b-\J	.	.	.	8f/J	.	.	.
.	.	.	.	.	16dd\JJ	.	.	.	.	.	.	.	.	.	.	.	.	.	.	.	.	.
!	!	!	!	!	!LO:LB:g=original	!	!	!	!	!	!	!	!	!	!	!	!	!	!	!	!	!
=-	=-	=-	=-	=-	=-	=-	=-	=-	=-	=-	=-	=-	=-	=-	=-	=-	=-	=-	=-	=-	=-	=-
4F\	5	.	4f\	4f/ 4ee-	16dd\LL	4F\	-sur-	4e-\	-su-	4e-\	-sur-	4cc\	-sur-	4Re/	4f/	4f/	4cc\	4c\	4e-/	4cc\	4ccc\	.
.	.	.	.	.	16cc\	.	.	.	.	.	.	.	.	.	.	.	.	.	.	.	.	.
.	.	.	.	.	16ff\	.	.	.	.	.	.	.	.	.	.	.	.	.	.	.	.	.
.	.	.	.	.	16a\JJ	.	.	.	.	.	.	.	.	.	.	.	.	.	.	.	.	.
!	!	!	!LO:LB:g=original	!	!	!	!	!	!	!	!	!	!	!	!	!	!	!	!	!	!	!
=4	=4	=4	=4	=4	=4	=4	=4	=4	=4	=4	=4	=4	=4	=4	=4	=4	=4	=4	=4	=4	=4	=4
!	!	!	!	!LO:TX:t=P:problem=mixed beam	!	!	!	!	!	!	!	!	!	!	!	!	!	!	!	!	!	!
8BB-'/L	.	.	8B-/L	8f\L 8dd	8b-\L	4D\	-re-	4d\	-re-	4d\	-re-	4b-\	-re-	8Ra/L	8b-\L	8d/L	8b-\L	8B-\L	8d/L	8b-\L	8bb-\L	.
8BB-'/J	.	.	8B-/J	8B-/J	8b-\J	.	.	.	.	.	.	.	.	8Ra/J	8b-\J	8B-/J	8b-\J	8B-\J	8B-/J	8b-\J	8bb-\J	.
8BB-'/L	.	.	8B-/L	8B-/L	8b-\L	4BB-/	-xit	4d\	-xit	4d\	-xit	4b-\	-xit	4Ra/	4b-\	4B-/	4b-\	4B-\	4B-/	4b-\	4bb-\	.
16C'/L	.	.	16c/L	16c/L	16cc\L	.	.	.	.	.	.	.	.	.	.	.	.	.	.	.	.	.
16D'/JJ	.	.	16d/JJ	16d/JJ	16dd\JJ	.	.	.	.	.	.	.	.	.	.	.	.	.	.	.	.	.
16E-'\LL	.	.	16e-\LL	16e-/LL	16ee-\LL	4r	.	4r	.	4r	.	4r	.	4r	4r	4r	4r	4r	4r	4r	4r	.
16F'\	.	.	16f\	16f/	16ff\	.	.	.	.	.	.	.	.	.	.	.	.	.	.	.	.	.
16G'\	.	.	16g\	16g/	16gg\	.	.	.	.	.	.	.	.	.	.	.	.	.	.	.	.	.
16A'\JJ	.	.	16a\JJ	16a/JJ	16aa\JJ	.	.	.	.	.	.	.	.	.	.	.	.	.	.	.	.	.
!LO:LB:g=original	!	!	!	!	!	!	!	!	!	!	!	!	!	!	!LO:LB:g=original	!	!	!LO:LB:g=original	!	!	!LO:LB:g=original	!
=5	=5	=5	=5	=5	=5	=5	=5	=5	=5	=5	=5	=5	=5	=5	=5	=5	=5	=5	=5	=5	=5	=5
4B-\	8	.	4b-\	16b-\LL	16bb-\LL	4B-\	ter-	4d\	ter-	4f\	ter-	4dd\	ter-	4r	8b-\L	4b-\	4dd\	4B-\	4f/	4dd\	4bb-\	.
.	.	.	.	16dd\	16ddd\	.	.	.	.	.	.	.	.	.	.	.	.	.	.	.	.	.
.	.	.	.	16f\	16ff\	.	.	.	.	.	.	.	.	.	16b-\L	.	.	.	.	.	.	.
.	.	.	.	16f\JJ	16ff\JJ	.	.	.	.	.	.	.	.	.	16b-\JJ	.	.	.	.	.	.	.
4D\	8	.	4f\	4f/ 4dd	16ff\LL	4B-\	-ti-	4d\	-ti-	4f\	-ti-	4dd\	-ti-	4Ra/	8b-\L	4b-\	4dd\	4d\	8f/L	4dd\	4ddd\	.
.	.	.	.	.	16bb-\	.	.	.	.	.	.	.	.	.	.	.	.	.	.	.	.	.
.	.	.	.	.	16dd\	.	.	.	.	.	.	.	.	.	8b-\J	.	.	.	8f/J	.	.	.
.	.	.	.	.	16dd\JJ	.	.	.	.	.	.	.	.	.	.	.	.	.	.	.	.	.
4F\	5	.	4f\	4f/ 4ee-	16dd\LL	4F\	-a	4e-\	-a	4e-\	-a	4cc\	-a	4Re/	4f/	4f/	4cc\	4c\	4e-/	4cc\	4ccc\	.
.	.	.	.	.	16cc\	.	.	.	.	.	.	.	.	.	.	.	.	.	.	.	.	.
.	.	.	.	.	16ff\	.	.	.	.	.	.	.	.	.	.	.	.	.	.	.	.	.
.	.	.	.	.	16a\JJ	.	.	.	.	.	.	.	.	.	.	.	.	.	.	.	.	.
=6	=6	=6	=6	=6	=6	=6	=6	=6	=6	=6	=6	=6	=6	=6	=6	=6	=6	=6	=6	=6	=6	=6
4B-'\	.	.	4B-/	4f/ 4dd	4b-\	4D\	di-	4d\	di-	4d\	di-	4b-\	di-	4Ra/	4B-/	4d/	4b-\	4B-\	4d/	4b-\	4bb-\	.
4BB-'/	.	.	4B-/	4B-/	4b-\	4BB-/	-e	4d\	-ee	4d\	-e	4b-\	-e	4Ra/	4B-/	4B-/	4b-\	4B-\	4B-/	4b-\	4bb-\	.
4B-'\	.	.	4r	4r	4r	4B-\	Se-	4r	.	4r	.	4r	.	4r	4r	4r	4r	4B-\	4r	4r	4r	.
!	!	!	!	!	!	!	!	!	!	!	!	!	!	!	!	!LO:LB:g=original	!	!	!LO:LB:g=original	!LO:LB:g=original	!	!
=7	=7	=7	=7	=7	=7	=7	=7	=7	=7	=7	=7	=7	=7	=7	=7	=7	=7	=7	=7	=7	=7	=7
!	!	!	!	!	!	!	!	!	!	!	!	!	!	!LO:TX:a:t=2.	!LO:TX:a:t=2	!LO:TX:a:t=2	!LO:TX:a:t=2	!	!	!	!	!
4A\	.	.	4r	4r	4r	(4A\	-cun-	4r	.	4r	.	4r	.	1.r	1.r	1.r	1.r	4A\	4r	4r	4r	.
4B-\	.	.	4r	4r	4r	4B-\)	.	4r	.	4r	.	4r	.	.	.	.	.	4B-\	4r	4r	4r	.
4A-X\	4	.	4f\	4b-\	4dd\	4A-X\	-dum	4B-\	Se-	4b-\	se-	4dd\	se-	.	.	.	.	4d\	4b-\	4dd\	4ddd\	.
!	!	!	!	!	!	!	!	!LO:LB:g=original	!	!LO:LB:g=original	!	!	!	!	!	!	!	!	!	!	!	!
=8	=8	=8	=8	=8	=8	=8	=8	=8	=8	=8	=8	=8	=8	=8	=8	=8	=8	=8	=8	=8	=8	=8
*	*	*	*	*	*	*	*ij	*2\right	*	*	*	*	*	*	*	*	*	*	*	*	*	*
4G\	6	.	4e-\	4cc\	4ee-\	4G\	Se-	2e-\	-cun-	4cc\	-cun-	4ee-\	-cun-	.	.	.	.	4e-\	4cc\	4ee-\	4eee-\	.
4F\	8	.	4f\	4dd\	4ff\	4F\	-cun-	.	.	4dd\	-dum	4ff\	-dum	.	.	.	.	4f\	4dd\	4ff\	4fff\	.
*	*	*	*	*	*	*	*	*	*	*	*ij	*	*	*	*	*	*	*	*	*	*	*
4E-\	10	.	4g\	4ee-\	4gg\	4E-\	-dum	4e-\	-dum	4ee-\	se-	4gg\	se-	.	.	.	.	4g\	4ee-\	4gg\	4ggg\	.
*	*	*	*	*	*	*	*Xij	*	*	*	*	*	*	*	*	*	*	*	*	*	*	*
!	!	!	!	!LO:LB:g=original	!LO:LB:g=original	!LO:LB:g=original	!	!	!	!	!	!	!	!	!	!	!	!	!	!	!	!
=9	=9	=9	=9	=9	=9	=9	=9	=9	=9	=9	=9	=9	=9	=9	=9	=9	=9	=9	=9	=9	=9	=9
*	*	*	*	*	*	*2\right	*	*	*	*	*	*	*	*	*	*	*	*	*	*	*	*
4F\	8	.	4f\	8.dd\L	8.ff\L	2F\	Scrip-	2f\	scrip-	4dd\	-cun-	4ff\	-cun-	4r	4r	4r	4r	4f\	4dd\	4ff\	8.fff\L	.
.	.	.	.	16b-\Jk	16dd\Jk	.	.	.	.	.	.	.	.	.	.	.	.	.	.	.	16ddd\Jk	.
!	!	!	!	!	!	!	!	!	!	!	!	!	!	!	!	!	!	!	!	!LO:TX:a:t=c	!	!
4F\	6	.	4f\	8f/L	8b-\L	.	.	.	.	4f\	-dum	4dd\	-d(um)	4Ra/	8b-\L	4b-\	4dd\	4d\	4dd\	4bb-\	8bb-\L	.
*	*	*	*	*	*	*	*	*	*	*	*Xij	*	*	*	*	*	*	*	*	*	*	*
.	.	.	.	8f/	8dd\	.	.	.	.	.	.	.	.	.	8b-\J	.	.	.	.	.	8ddd\	.
!	!	!	!	!	!LO:TX:t=P:problem=mixed beam	!	!	!	!	!	!	!	!	!	!	!	!	!	!	!	!	!
4F\	5	.	4F/	8en/	8f/	4F\	-tu-	4f\	-tu-	4e-\	Scrip-	4cc\	scrip-	4Re/	4f/	4f/	4cc\	4c\	4cc\	4aa\	8ff\	.
.	.	.	.	8e-X/J	8a/J	.	.	.	.	.	.	.	.	.	.	.	.	.	.	.	8aa\J	.
=10	=10	=10	=10	=10	=10	=10	=10	=10	=10	=10	=10	=10	=10	=10	=10	=10	=10	=10	=10	=10	=10	=10
!	!	!	!	!	!	!	!	!	!	!	!	!	!	!	!	!	!	!	!	!	!LO:TX:a:t=P:problem=4 takty zapisane jako repetycja	!
4BB-/	.	.	4B-/	4d/	4b-\	2BB-/	-ras	2f\	-ras	4d\	-tu-	4b-\	-tu-	4Ra/	4B-/	4d/	4b-\	4B-\	4dd\	4bb-\	4bb-\	.
4B-'\	.	.	4B-/	4d/	4b-\	.	.	.	.	4d\	-ras	4b-\	-ras	4Ra/	4B-/	4B-/	4b-\	4B-\	4dd\	4bb-\	4bb-\	.
!	!	!	!LO:TX:b:t=V&colon;S&colon;	!	!	!	!	!	!	!	!	!	!	!	!	!	!	!	!	!	!	!
4B-'\	.	.	4r	4r	4r	4B-\	se-	4r	.	4r	.	4r	.	4r	4r	4r	4r	4B-\	4r	4r	4r	.
!	!	!	!LO:PB:g=original	!	!	!	!	!	!	!	!	!LO:LB:g=original	!	!	!	!	!	!	!	!	!	!
=11	=11	=11	=11	=11	=11	=11	=11	=11	=11	=11	=11	=11	=11	=11	=11	=11	=11	=11	=11	=11	=11	=11
!	!	!	!	!	!	!	!	!	!	!	!	!	!	!LO:TX:a:t=2.	!LO:TX:a:t=2	!LO:TX:a:t=2	!LO:TX:a:t=2	!	!	!	!	!
4A'\	.	.	4r	4r	4r	(4A\	-cun-	4r	.	4r	.	4r	.	1.r	1.r	1.r	1.r	4A\	4r	4r	4r	.
4B-'\	.	.	4r	4r	4r	4B-\)	.	4r	.	4r	.	4r	.	.	.	.	.	4B-\	4r	4r	4r	.
4A-X\	4	.	4f\	4b-\	4dd\	4A-X\	-dum	4B-\	se-	4b-\	Se-	4dd\	se-	.	.	.	.	4d\	4b-\	4dd\	4ddd\	.
=12	=12	=12	=12	=12	=12	=12	=12	=12	=12	=12	=12	=12	=12	=12	=12	=12	=12	=12	=12	=12	=12	=12
*	*	*	*	*	*	*	*ij	*	*	*	*	*	*	*	*	*	*	*	*	*	*	*
4G\	6	.	4e-\	4cc\	4ee-\	4G\	se-	4e-\	-cun-	4cc\	-cun-	4ee-\	-cun-	.	.	.	.	4e-\	4cc\	4ee-\	4eee-\	.
4F\	8	.	4f\	4dd\	4ff\	4F\	-cun-	4e-\	-dum	4dd\	-dum	4ff\	.	.	.	.	.	4f\	4dd\	4ff\	4fff\	.
4E-\	10	.	4g\	4ee-\	4gg\	4E-\	-dum	4e-\	scrip-	4ee-\	Scrip-	4gg\	-dum	.	.	.	.	4g\	4ee-\	4gg\	4ggg\	.
*	*	*	*	*	*	*	*Xij	*	*	*	*	*	*	*	*	*	*	*	*	*	*	*
=13	=13	=13	=13	=13	=13	=13	=13	=13	=13	=13	=13	=13	=13	=13	=13	=13	=13	=13	=13	=13	=13	=13
4F\	8	.	4f\	8.dd\L	8.ff\L	4F\	scrip-	2f\	-tu-	(4dd\	-tu-	4ff\	scrip-	4r	4r	4r	4r	4f\	4dd\	4ff\	8.fff\L	.
.	.	.	.	16b-\Jk	16dd\Jk	.	.	.	.	.	.	.	.	.	.	.	.	.	.	.	16ddd\Jk	.
4F\	6	.	4f\	8f/L	8b-\L	4F\	-tu-	.	.	4f\)	.	4dd\	-tu-	4Ra/	4b-\	4b-\	4dd\	4d\	4dd\	4bb-\	8bb-\L	.
.	.	.	.	8f/	8dd\	.	.	.	.	.	.	.	.	.	.	.	.	.	.	.	8ddd\	.
!	!	!	!	!	!LO:TX:t=P:problem=mixed beam	!	!	!	!	!	!	!	!	!	!	!	!	!	!	!	!	!
4F\	5	.	4F/	8en/	8f/	4F\	-ras	4f\	-ras	4a\	-ras	4cc\	-ras	4Re/	4b-\	4f/	4cc\	4c\	4cc\	4aa\	8ff\	.
.	.	.	.	8e-X/J	8a/J	.	.	.	.	.	.	.	.	.	.	.	.	.	.	.	8aa\J	.
!	!	!	!	!LO:LB:g=original	!	!	!	!	!	!	!	!	!	!	!	!	!	!LO:LB:g=original	!	!	!	!
=14	=14	=14	=14	=14	=14	=14	=14	=14	=14	=14	=14	=14	=14	=14	=14	=14	=14	=14	=14	=14	=14	=14
*	*	*	*	*	*	*	*	*	*	*2\right	*	*2\right	*	*	*	*	*	*	*	*	*	*
!LO:TX:t=P:problem=mixed beam	!	!	!LO:TX:t=P:problem=mixed beam	!	!	!	!	!	!	!	!	!	!	!	!	!	!	!	!	!	!	!
8BB-/L	3	.	8B-/L	8d/L	8b-\L	2B-\	et	2d\	et	2b-\	et	2dd\	et	8Ra/L	8b-\L	8d/L	8b-\L	8d\L	8dd\L	8bb-\L	8bb-\L	.
8B-\J	.	.	8b-\J	8f/J 8dd	8b-\J	.	.	.	.	.	.	.	.	8Ra/J	8b-\J	8d/J	8b-\J	8d\J	8dd\J	8bb-\J	8bb-\J	.
4B-\	.	.	4b-\	4f/ 4dd	16b-\LL	.	.	.	.	.	.	.	.	4Ra/	4b-\	4d/	4b-\	4d\	4dd\	4bb-\	4bb-\	.
.	.	.	.	.	16cc\	.	.	.	.	.	.	.	.	.	.	.	.	.	.	.	.	.
.	.	.	.	.	16dd\	.	.	.	.	.	.	.	.	.	.	.	.	.	.	.	.	.
.	.	.	.	.	16cc\JJ	.	.	.	.	.	.	.	.	.	.	.	.	.	.	.	.	.
4r	.	.	4r	4r	16b-\LL	4B-\	as-	4d\	a-	4b-\	a-	4dd\	a-	4r	4r	4r	4r	4r	4r	4r	4r	.
.	.	.	.	.	16cc\	.	.	.	.	.	.	.	.	.	.	.	.	.	.	.	.	.
.	.	.	.	.	16dd\	.	.	.	.	.	.	.	.	.	.	.	.	.	.	.	.	.
.	.	.	.	.	16een\JJ	.	.	.	.	.	.	.	.	.	.	.	.	.	.	.	.	.
!LO:LB:g=original	!	!	!	!	!	!	!	!	!	!LO:LB:g=original	!	!	!	!	!LO:LB:g=original	!	!	!	!	!	!	!
=15	=15	=15	=15	=15	=15	=15	=15	=15	=15	=15	=15	=15	=15	=15	=15	=15	=15	=15	=15	=15	=15	=15
!LO:TX:t=P:problem=mixed beam	!	!	!LO:TX:t=P:problem=mixed beam	!	!	!	!	!	!	!	!	!	!	!	!	!	!	!	!	!	!	!
8FF/L	5 3	.	8F/L	8f/L 8cc	8ff\L	4F\	-cen-	4f\	-scen-	4a\	-scen-	4cc\	-scen-	8Re/L	8f/L	8f/L	8cc\L	8c\L	8cc\L	8aa\L	8ccc\L	.
8F\J	.	.	8f\J	8f/J 8cc	8ff\J	.	.	.	.	.	.	.	.	8Re/J	8f/J	8f/J	8cc\J	8c\J	8cc\J	8aa\J	8ccc\J	.
!	!	!	!	!	!LO:LB:g=original	!	!	!	!	!	!	!	!	!	!	!	!	!	!	!	!	!
=-	=-	=-	=-	=-	=-	=-	=-	=-	=-	=-	=-	=-	=-	=-	=-	=-	=-	=-	=-	=-	=-	=-
4F\	.	.	4f\	4f/ 4cc	16ff\LL	4F\	-dit	4f\	-dit	4a\	-dit	4cc\	-dit	4Re/	4f/	4f/	4cc\	4c\	4cc\	4aa\	4ccc\	.
.	.	.	.	.	16gg\	.	.	.	.	.	.	.	.	.	.	.	.	.	.	.	.	.
.	.	.	.	.	16aa\	.	.	.	.	.	.	.	.	.	.	.	.	.	.	.	.	.
.	.	.	.	.	16gg\JJ	.	.	.	.	.	.	.	.	.	.	.	.	.	.	.	.	.
4r	.	.	4r	4r	16ff\LL	4F\	in	4f\	in	4a\	in	4cc\	in	4r	4r	4r	4r	4r	4r	4r	4r	.
.	.	.	.	.	16gg\	.	.	.	.	.	.	.	.	.	.	.	.	.	.	.	.	.
.	.	.	.	.	16aa\	.	.	.	.	.	.	.	.	.	.	.	.	.	.	.	.	.
.	.	.	.	.	16ff\JJ	.	.	.	.	.	.	.	.	.	.	.	.	.	.	.	.	.
!	!	!	!	!	!	!	!	!	!	!	!	!	!	!	!	!	!	!	!LO:LB:g=original	!	!	!
=16	=16	=16	=16	=16	=16	=16	=16	=16	=16	=16	=16	=16	=16	=16	=16	=16	=16	=16	=16	=16	=16	=16
!	!	!	!	!	!	!	!	!	!	!	!	!	!	!LO:TX:a:t=1.	!	!	!	!	!	!	!	!
8C\L	7	.	8c\L	16b-\LL	16bb-\LL	4C/	cae-	4c\	ce-	4g\	coe-	4b-\	ce-	2.r	4cc\	2.cc\	2.cc\	2.B-\	2.eeX\	2.gg\	2.ccc\	.
.	.	.	.	16cc\	16gg\	.	.	.	.	.	.	.	.	.	.	.	.	.	.	.	.	.
8D-X\	.	.	8d-X\	16cc\	16gg\	.	.	.	.	.	.	.	.	.	.	.	.	.	.	.	.	.
.	.	.	.	16cc\JJ	16een\JJ	.	.	.	.	.	.	.	.	.	.	.	.	.	.	.	.	.
8C\	.	.	8c\	16b-\LL	16ee\LL	4C/	-lum	4c\	-lum	4g\	-lum	4b-\	-lum	.	8r	.	.	.	.	.	.	.
.	.	.	.	16cc\	16dd-X\	.	.	.	.	.	.	.	.	.	.	.	.	.	.	.	.	.
8C\	.	.	8c\	16cc\	16dd-\	.	.	.	.	.	.	.	.	.	16cc\LL	.	.	.	.	.	.	.
.	.	.	.	16cc\JJ	16cc\JJ	.	.	.	.	.	.	.	.	.	16cc\JJ	.	.	.	.	.	.	.
8En\	.	.	8en\	16b-\LL	16cc\LL	4En\	se-	4c\	se-	4g\	Se-	4b-\	se-	.	8cc\L	.	.	.	.	.	.	.
.	.	.	.	16cc\	16dd-\	.	.	.	.	.	.	.	.	.	.	.	.	.	.	.	.	.
8E\J	.	.	8e\J	16cc\	16cc\	.	.	.	.	.	.	.	.	.	8cc\J	.	.	.	.	.	.	.
.	.	.	.	16cc\JJ	16b-\JJ	.	.	.	.	.	.	.	.	.	.	.	.	.	.	.	.	.
!	!	!	!	!	!	!	!	!	!	!	!	!	!	!	!	!	!	!	!	!LO:LB:g=original	!	!
=17	=17	=17	=17	=17	=17	=17	=17	=17	=17	=17	=17	=17	=17	=17	=17	=17	=17	=17	=17	=17	=17	=17
*tremolo	*	*	*	*	*	*	*	*	*	*	*	*	*	*	*	*	*	*	*	*	*	*
*	*	*	*tremolo	*	*	*	*	*	*	*	*	*	*	*	*	*	*	*	*	*	*	*
8F\L	3	.	8f\L	16a\LL	16a\LL	4F\	.	4c\	-det	4f\	-det	4a\	-det	4Re/	4f/	2.f/	2.cc\	2.A\	2.ff\	2.aa\	2.ccc\	.
.	.	.	.	16cc\	16cc\	.	.	.	.	.	.	.	.	.	.	.	.	.	.	.	.	.
8F\	.	.	8f\	16cc\	16ff\	.	.	.	.	.	.	.	.	.	.	.	.	.	.	.	.	.
.	.	.	.	16cc\JJ	16aa\JJ	.	.	.	.	.	.	.	.	.	.	.	.	.	.	.	.	.
*	*	*	*	*rep	*	*	*	*	*	*	*	*	*	*	*	*	*	*	*	*	*	*
8F\	.	.	8f\	16a\LL	16gg\LL	4F\	-det	4c\	ad-	4f\	ad-	4a\	ad	8r	8r	.	.	.	.	.	.	.
.	.	.	.	16cc\	16ff\	.	.	.	.	.	.	.	.	.	.	.	.	.	.	.	.	.
8F\	.	.	8f\	16cc\	16een\	.	.	.	.	.	.	.	.	8Re/L	16f/LL	.	.	.	.	.	.	.
.	.	.	.	16cc\JJ	16ff\JJ	.	.	.	.	.	.	.	.	.	16f/JJ	.	.	.	.	.	.	.
*	*	*	*	*Xrep	*	*	*	*	*	*	*	*	*	*	*	*	*	*	*	*	*	*
*	*	*	*	*rep	*	*	*	*	*	*	*	*	*	*	*	*	*	*	*	*	*	*
8F\	.	.	8f\	16a\LL	16ee\LL	4F\	ad	4c\	-dex-	4f\	-ex-	4a\	dex-	8Re/	8f/L	.	.	.	.	.	.	.
.	.	.	.	16cc\	16ff\	.	.	.	.	.	.	.	.	.	.	.	.	.	.	.	.	.
8F\J	.	.	8f\J	16cc\	16gg\	.	.	.	.	.	.	.	.	8Re/J	8f/J	.	.	.	.	.	.	.
.	.	.	.	16cc\JJ	16aa\JJ	.	.	.	.	.	.	.	.	.	.	.	.	.	.	.	.	.
*Xtremolo	*	*	*Xtremolo	*Xrep	*	*	*	*	*	*	*	*	*	*	*	*	*	*	*	*	*	*
!	!	!	!	!LO:LB:g=original	!	!LO:LB:g=original	!	!LO:LB:g=original	!	!	!	!	!	!	!	!	!	!	!	!	!	!
=18	=18	=18	=18	=18	=18	=18	=18	=18	=18	=18	=18	=18	=18	=18	=18	=18	=18	=18	=18	=18	=18	=18
!	!	!	!	!	!	!	!	!	!	!	!	!	!	!LO:TX:a:t=1	!	!	!	!	!	!	!	!
8C\L	7	.	8c\L	16b-\LL	16bb-\LL	4C/	dex-	4c\	-te-	8g\	-ter-	4b-\	-te-	2.r	4cc\	2.cc\	2.cc\	2.B-\	2.ee-\	2.gg\	2.ccc\	.
.	.	.	.	16cc\	16gg\	.	.	.	.	.	.	.	.	.	.	.	.	.	.	.	.	.
8D-X\	.	.	8d-X\	16cc\	16gg\	.	.	.	.	8g\	-ram	.	.	.	.	.	.	.	.	.	.	.
.	.	.	.	16cc\JJ	16een\JJ	.	.	.	.	.	.	.	.	.	.	.	.	.	.	.	.	.
*	*	*	*	*rep	*	*	*	*	*	*	*	*	*	*	*	*	*	*	*	*	*	*
8C\	.	.	8c\	16b-\LL	16ee\LL	4C/	-te-	4c\	-ram	4g\	pa-	4b-\	-ram	.	8r	.	.	.	.	.	.	.
.	.	.	.	16cc\	16dd-X\	.	.	.	.	.	.	.	.	.	.	.	.	.	.	.	.	.
8C\	.	.	8c\	16cc\	16dd-\	.	.	.	.	.	.	.	.	.	16cc\LL	.	.	.	.	.	.	.
.	.	.	.	16cc\JJ	16cc\JJ	.	.	.	.	.	.	.	.	.	16cc\JJ	.	.	.	.	.	.	.
*	*	*	*	*Xrep	*	*	*	*	*	*	*	*	*	*	*	*	*	*	*	*	*	*
!	!	!	!	!	!LO:LB:g=original	!	!	!	!	!	!	!	!	!	!	!	!	!	!	!	!	!
=-	=-	=-	=-	=-	=-	=-	=-	=-	=-	=-	=-	=-	=-	=-	=-	=-	=-	=-	=-	=-	=-	=-
*	*	*	*	*rep	*	*	*	*	*	*	*	*	*	*	*	*	*	*	*	*	*	*
8En\	.	.	8en\	16b-\LL	16cc\LL	4En\	.	4c\	Pa-	4g\	.	4b-\	pa-	.	8cc\L	.	.	.	.	.	.	.
.	.	.	.	16cc\	16dd-\	.	.	.	.	.	.	.	.	.	.	.	.	.	.	.	.	.
8E\J	.	.	8e\J	16cc\	16cc\	.	.	.	.	.	.	.	.	.	8cc\J	.	.	.	.	.	.	.
.	.	.	.	16cc\JJ	16b-\JJ	.	.	.	.	.	.	.	.	.	.	.	.	.	.	.	.	.
*	*	*	*	*Xrep	*	*	*	*	*	*	*	*	*	*	*	*	*	*	*	*	*	*
=19	=19	=19	=19	=19	=19	=19	=19	=19	=19	=19	=19	=19	=19	=19	=19	=19	=19	=19	=19	=19	=19	=19
!	!	!	!	!	!	!	!	!	!	!	!	!	!	!	!	!	!LO:TX:a:t=P:problem=takt dopisany ołówkiem	!	!	!	!	!
!	!	!	!	!	!	!	!	!	!	!	!	!	!	!	!	!	!LO:TXX:a:t=d	!	!	!	!	!
4F\	3	.	4f\	4f/	16a\LL 16ff	4F\	-ram	4c\	-tris	4f\	-tris	4a\	-tris	4Re/	4f/	4f/	4cc\yy	4A\	4ff\	4aa\	4fff\	.
.	.	.	.	.	16f\	.	.	.	.	.	.	.	.	.	.	.	.	.	.	.	.	.
.	.	.	.	.	16g\	.	.	.	.	.	.	.	.	.	.	.	.	.	.	.	.	.
.	.	.	.	.	16a\JJ	.	.	.	.	.	.	.	.	.	.	.	.	.	.	.	.	.
!	!	!	!	!	!	!	!	!	!	!	!	!	!	!	!	!	!LO:TXX:a:t=d	!	!	!	!	!
4FF/	.	.	4F/	8f/L	16b-\LL	4r	.	4r	.	4r	.	4r	.	4Re/	4f/	4f/	4cc\yy	4A\	4ff\	4aa\	4ff\	.
.	.	.	.	.	16a\	.	.	.	.	.	.	.	.	.	.	.	.	.	.	.	.	.
.	.	.	.	16g/L	16b-\	.	.	.	.	.	.	.	.	.	.	.	.	.	.	.	.	.
.	.	.	.	16a/JJ	16cc\JJ	.	.	.	.	.	.	.	.	.	.	.	.	.	.	.	.	.
4r	.	.	4r	16b-\LL	16ddn\LL	4r	.	4r	.	4r	.	4r	.	4r	4r	4r	4ryy	4r	4r	4r	4r	.
.	.	.	.	16cc\	16een\	.	.	.	.	.	.	.	.	.	.	.	.	.	.	.	.	.
.	.	.	.	16dd\	16ff\	.	.	.	.	.	.	.	.	.	.	.	.	.	.	.	.	.
.	.	.	.	16een\JJ	16gg\JJ	.	.	.	.	.	.	.	.	.	.	.	.	.	.	.	.	.
!	!	!	!LO:LB:g=original	!	!	!	!	!	!	!LO:PB:g=original	!	!	!	!	!	!LO:LB:g=original	!LO:LB:g=original	!	!	!	!	!
=20	=20	=20	=20	=20	=20	=20	=20	=20	=20	=20	=20	=20	=20	=20	=20	=20	=20	=20	=20	=20	=20	=20
*tremolo	*	*	*tremolo	*	*	*	*	*	*	*	*	*	*	*	*	*	*	*	*	*	*	*
!	!	!	!	!	!	!	!	!	!	!	!	!	!	!LO:TX:a:t=5.	!LO:TX:a:t=4	!LO:TX:a:t=4	!LO:TX:a:t=4	!LO:TX:a:t=4	!LO:TX:a:t=4	!LO:TX:a:t=4	!LO:TX:a:t=4.	!
8F\L	3	.	8f\L	8ff\	8aa\	2F\	et	2f\	et	2f\	et	2aa\	et	0.r	0.r	0.r	0.r	0.r	0.r	0.r	0.r	.
8F\	.	.	8f\	4ff\	4aa\	.	.	.	.	.	.	.	.	.	.	.	.	.	.	.	.	.
8F\	.	.	8f\	.	.	.	.	.	.	.	.	.	.	.	.	.	.	.	.	.	.	.
8F\J	.	.	8f\J	8ff\	8aa\	.	.	.	.	.	.	.	.	.	.	.	.	.	.	.	.	.
*Xtremolo	*	*	*Xtremolo	*	*	*	*	*	*	*	*	*	*	*	*	*	*	*	*	*	*	*
8c#X\L	4	.	8cc#X\L	8ee-\L	8gg\L	4c#X\	in-	4en\	in	4en\	i-	4gg\	in	.	.	.	.	.	.	.	.	.
8c#\J	.	.	8cc#\J	8ee-\J	8gg\J	.	.	.	.	.	.	.	.	.	.	.	.	.	.	.	.	.
=21	=21	=21	=21	=21	=21	=21	=21	=21	=21	=21	=21	=21	=21	=21	=21	=21	=21	=21	=21	=21	=21	=21
*tremolo	*	*	*	*	*	*	*	*	*	*	*	*	*	*	*	*	*	*	*	*	*	*
8d\L	3	.	2dd\	8dd\	8ff\	2d\	-te-	2d\	te-	2dd\	-ter-	2ff\	te-	.	.	.	.	.	.	.	.	.
8d\	.	.	.	4dd\	4ff\	.	.	.	.	.	.	.	.	.	.	.	.	.	.	.	.	.
8d\	.	.	.	.	.	.	.	.	.	.	.	.	.	.	.	.	.	.	.	.	.	.
8d\J	.	.	.	8dd\	8ff\	.	.	.	.	.	.	.	.	.	.	.	.	.	.	.	.	.
*Xtremolo	*	*	*	*	*	*	*	*	*	*	*	*	*	*	*	*	*	*	*	*	*	*
8A\L	5	.	8a\L	8cc\L	8ee-X\L	4A\	-rum	4e-X\	-rum	4cc\	-rum	4ee-X\	-rum	.	.	.	.	.	.	.	.	.
8A\J	.	.	8a\J	8cc\J	8ee-\J	.	.	.	.	.	.	.	.	.	.	.	.	.	.	.	.	.
!LO:LB:g=original	!	!	!	!LO:LB:g=original	!	!	!	!	!	!	!	!	!	!	!	!	!	!	!	!	!	!
=22	=22	=22	=22	=22	=22	=22	=22	=22	=22	=22	=22	=22	=22	=22	=22	=22	=22	=22	=22	=22	=22	=22
*tremolo	*	*	*tremolo	*	*	*	*	*	*	*	*	*	*	*	*	*	*	*	*	*	*	*
8B-\L	3	.	8b-\L	8b-\	8dd\	4B-\	ven-	4d\	ven-	4b-\	ven-	4dd\	ven-	.	.	.	.	.	.	.	.	.
8B-\	.	.	8b-\	4b-\	4dd\	.	.	.	.	.	.	.	.	.	.	.	.	.	.	.	.	.
8B-\	.	.	8b-\	.	.	4B-\	-tu-	4d\	-tu-	4b-\	-tu-	4dd\	-tu-	.	.	.	.	.	.	.	.	.
8B-\J	.	.	8b-\J	8b-\	8dd\	.	.	.	.	.	.	.	.	.	.	.	.	.	.	.	.	.
*Xtremolo	*	*	*Xtremolo	*	*	*	*	*	*	*	*	*	*	*	*	*	*	*	*	*	*	*
8F#X\L	5	.	8f#X\L	8a/L	8cc\L	4F#X\	-rus	4c\	-rus	4a\	-rus	4cc\	-rus	.	.	.	.	.	.	.	.	.
8F#\J	.	.	8f#\J	8a/J	8cc\J	.	.	.	.	.	.	.	.	.	.	.	.	.	.	.	.	.
!	!	!	!	!	!LO:LB:g=original	!	!	!	!	!	!	!LO:LB:g=original	!	!	!	!	!	!	!	!	!	!
=23	=23	=23	=23	=23	=23	=23	=23	=23	=23	=23	=23	=23	=23	=23	=23	=23	=23	=23	=23	=23	=23	=23
4G\	3	.	4g\	4g/	4b-\	4G\	est	4d\	est	4d\	est	4b-\	est	.	.	.	.	.	.	.	.	.
4C/	7	.	4cn/	16g/LL	16b-\LL	4r	.	4r	.	4r	.	4r	.	.	.	.	.	.	.	.	.	.
.	.	.	.	16en/	16g\	.	.	.	.	.	.	.	.	.	.	.	.	.	.	.	.	.
.	.	.	.	16f/	16a\	.	.	.	.	.	.	.	.	.	.	.	.	.	.	.	.	.
.	.	.	.	16g/JJ	16b-\JJ	.	.	.	.	.	.	.	.	.	.	.	.	.	.	.	.	.
4r	.	.	4r	16a\LL	16cc\LL	4r	.	4r	.	4r	.	4r	.	.	.	.	.	.	.	.	.	.
.	.	.	.	16b-\	16dd\	.	.	.	.	.	.	.	.	.	.	.	.	.	.	.	.	.
.	.	.	.	16cc\	16een\	.	.	.	.	.	.	.	.	.	.	.	.	.	.	.	.	.
.	.	.	.	16dd\JJ	16ff\JJ	.	.	.	.	.	.	.	.	.	.	.	.	.	.	.	.	.
=24	=24	=24	=24	=24	=24	=24	=24	=24	=24	=24	=24	=24	=24	=24	=24	=24	=24	=24	=24	=24	=24	=24
*tremolo	*	*	*tremolo	*	*	*	*	*	*	*	*	*	*	*	*	*	*	*	*	*	*	*
8c\L	.	.	8cc\L	8een\	8gg\	4cn\	est	4c\	cum	4g\	est	4een\	est	2.r	4cc\	2.cc\	2.cc\	2.G\	2.eeX\	2.gg\	2.gg\	.
8c\	.	.	8cc\	4ee\	4gg\	.	.	.	.	.	.	.	.	.	.	.	.	.	.	.	.	.
8c\	.	.	8cc\	.	.	4c\	cum	4c\	.	4g\	cum	4ee\	cum	.	4r	.	.	.	.	.	.	.
8c\	.	.	8cc\	8ee\	8gg\	.	.	.	.	.	.	.	.	.	.	.	.	.	.	.	.	.
8c\	.	.	8cc\	16ff\LL	16aa\LL	4c\	glo-	4c\	glo-	4g\	Glo-	4ee\	glo-	.	4r	.	.	.	.	.	.	.
.	.	.	.	16ee\	16gg\	.	.	.	.	.	.	.	.	.	.	.	.	.	.	.	.	.
8c\J	.	.	8cc\J	16dd\	16ff#X\	.	.	.	.	.	.	.	.	.	.	.	.	.	.	.	.	.
.	.	.	.	16ee\JJ	16gg\JJ	.	.	.	.	.	.	.	.	.	.	.	.	.	.	.	.	.
=25	=25	=25	=25	=25	=25	=25	=25	=25	=25	=25	=25	=25	=25	=25	=25	=25	=25	=25	=25	=25	=25	=25
*	*	*	*	*tremolo	*	*	*	*	*	*	*	*	*	*	*	*	*	*	*	*	*	*
8d\L	5 3	.	8dd\L	16ff\LL	8aa\	4d\	-ri-	4c\	-ri-	4a\	-ri-	4ff\	-ri-	4Re/	4f/	2f/	2cc\	2A\	2ff\	2aa\	2aa\	.
.	.	.	.	16ff\	.	.	.	.	.	.	.	.	.	.	.	.	.	.	.	.	.	.
8d\	.	.	8dd\	16ff\	4aa\	.	.	.	.	.	.	.	.	.	.	.	.	.	.	.	.	.
.	.	.	.	16ff\	.	.	.	.	.	.	.	.	.	.	.	.	.	.	.	.	.	.
8d\	.	.	8dd\	16ff\	.	4d\	-a	4c\	-a	4a\	-a	4ff\	-a	8r	8r	.	.	.	.	.	.	.
.	.	.	.	16ff\	.	.	.	.	.	.	.	.	.	.	.	.	.	.	.	.	.	.
8d\	.	.	8dd\J	16ff\	16gg\LL	.	.	.	.	.	.	.	.	8Re/L	8f/L	.	.	.	.	.	.	.
.	.	.	.	16ff\JJ	16ff\JJ	.	.	.	.	.	.	.	.	.	.	.	.	.	.	.	.	.
*	*	*	*Xtremolo	*	*	*	*	*	*	*	*	*	*	*	*	*	*	*	*	*	*	*
8d\	.	.	8a\L	16cc\LL	16een\LL	4A\	ju-	4c\	ju-	4a\	ju-	4cc\	ju-	8Re/	8f/	4f/	4cc\	4A\	4cc\	4ff\	4ccc\	.
.	.	.	.	16cc\	16ff\	.	.	.	.	.	.	.	.	.	.	.	.	.	.	.	.	.
8d\J	.	.	8a\J	16cc\	16cc\	.	.	.	.	.	.	.	.	8Re/J	8f/J	.	.	.	.	.	.	.
.	.	.	.	16cc\JJ	16ee-X\JJ	.	.	.	.	.	.	.	.	.	.	.	.	.	.	.	.	.
*Xtremolo	*	*	*	*Xtremolo	*	*	*	*	*	*	*	*	*	*	*	*	*	*	*	*	*	*
!	!	!	!	!LO:LB:g=original	!	!	!	!	!	!	!	!	!	!LO:LB:g=original	!LO:LB:g=original	!	!	!	!	!	!LO:LB:g=original	!
=26	=26	=26	=26	=26	=26	=26	=26	=26	=26	=26	=26	=26	=26	=26	=26	=26	=26	=26	=26	=26	=26	=26
!	!	!	!	!	!	!	!	!	!	!	!	!	!	!LO:TX:a:t=1.	!LO:TX:a:t=1	!	!	!	!	!	!	!
8B-\L	6	.	8b-\L	8b-\L	16dd\LL	4B-\	-di-	4d\	-di-	4b-\	-di-	4dd\	-di-	2.r	2.r	4b-\	4dd\	4B-\	4b-\	4dd\	4ddd\	.
.	.	.	.	.	16gg\	.	.	.	.	.	.	.	.	.	.	.	.	.	.	.	.	.
8B-\	.	.	8b-\	16dd\L	16bb-\	.	.	.	.	.	.	.	.	.	.	.	.	.	.	.	.	.
.	.	.	.	16b-\JJ	16gg\JJ	.	.	.	.	.	.	.	.	.	.	.	.	.	.	.	.	.
8c\	4	.	8cc\	16a\LL	16ff\LL	4c\	-ca-	4c\	-ca-	4a\	-ca-	4ff\	-ca-	.	.	4cc\	4cc\	4A\	4a\	4ff\	4ccc\	.
.	.	.	.	16cc\	16aa\	.	.	.	.	.	.	.	.	.	.	.	.	.	.	.	.	.
8c\	.	.	8cc\	16a\	16ff\	.	.	.	.	.	.	.	.	.	.	.	.	.	.	.	.	.
.	.	.	.	16cc\JJ	16aa\JJ	.	.	.	.	.	.	.	.	.	.	.	.	.	.	.	.	.
!LO:TX:t=P:problem=mixed beam	!	!	!LO:TX:t=P:problem=mixed beam	!	!	!	!	!	!	!	!	!	!	!	!	!	!	!	!	!	!	!
8C/	.	.	8c/	16b-\LL	16cc\LL	4C/	-re	4c\	-re	4g\	-re	4ee-\	-re	.	.	4cc\	4cc\	4G\	4g\	4eeX\	4bb-\	.
.	.	.	.	16cc\	16ee-\	.	.	.	.	.	.	.	.	.	.	.	.	.	.	.	.	.
8C/J	.	.	8c/J	16b-\	16cc\	.	.	.	.	.	.	.	.	.	.	.	.	.	.	.	.	.
.	.	.	.	16cc\JJ	16ee-\JJ	.	.	.	.	.	.	.	.	.	.	.	.	.	.	.	.	.
!	!	!	!	!	!LO:LB:g=original	!LO:LB:g=original	!	!	!	!	!	!	!	!	!	!	!	!LO:LB:g=original	!	!	!	!
=27	=27	=27	=27	=27	=27	=27	=27	=27	=27	=27	=27	=27	=27	=27	=27	=27	=27	=27	=27	=27	=27	=27
4F\	8	.	4f\	16a/LL	16a\LL 16ff	4F\	vi-	4c\	wi-	4a\	vi-	4ff\	vi-	4Re/	4f/	4f/	4cc\	4A\	4a\	4ff\	4aa\	.
.	.	.	.	16f/	16f\	.	.	.	.	.	.	.	.	.	.	.	.	.	.	.	.	.
.	.	.	.	16en/	16g\	.	.	.	.	.	.	.	.	.	.	.	.	.	.	.	.	.
.	.	.	.	16f/JJ	16a\JJ	.	.	.	.	.	.	.	.	.	.	.	.	.	.	.	.	.
4F\	.	.	4f\	16g/LL	16b-\LL	4F\	-vos	4c\	-wos	4a\	-vos	4ff\	-vos	4Re/	4f/	4f/	4r	4A\	4a\	4ff\	4aa\	.
.	.	.	.	16f/	16a\	.	.	.	.	.	.	.	.	.	.	.	.	.	.	.	.	.
.	.	.	.	16g/	16b-\	.	.	.	.	.	.	.	.	.	.	.	.	.	.	.	.	.
.	.	.	.	16a/JJ	16cc\JJ	.	.	.	.	.	.	.	.	.	.	.	.	.	.	.	.	.
4r	.	.	4r	16b-\LL	16ddn\LL	4r	.	4r	.	4r	.	4r	.	4r	4r	4r	4r	4r	4r	4r	4r	.
.	.	.	.	16cc\	16ee-\	.	.	.	.	.	.	.	.	.	.	.	.	.	.	.	.	.
.	.	.	.	16dd\	16ff\	.	.	.	.	.	.	.	.	.	.	.	.	.	.	.	.	.
.	.	.	.	16een\JJ	16gg\JJ	.	.	.	.	.	.	.	.	.	.	.	.	.	.	.	.	.
!	!	!	!	!	!	!	!	!LO:LB:g=original	!	!LO:LB:g=original	!	!	!	!	!	!	!	!	!	!	!	!
=28	=28	=28	=28	=28	=28	=28	=28	=28	=28	=28	=28	=28	=28	=28	=28	=28	=28	=28	=28	=28	=28	=28
*tremolo	*	*	*tremolo	*	*	*	*ij	*	*	*	*	*	*	*	*	*	*	*	*	*	*	*
!	!	!	!	!	!	!	!	!	!	!	!	!	!	!LO:TX:a:t=5	!LO:TX:a:t=4	!LO:TX:a:t=4	!LO:TX:a:t=4	!LO:TX:a:t=4	!LO:TX:a:t=4.	!LO:TX:a:t=4	!LO:TX:a:t=4.	!
8F\L	3	.	8f\L	8ff\	8aa\	2F\	vi-	2f\	vi-	2f\	vi-	2aa\	vi-	0.r	0.r	0.r	0.r	0.r	0.r	0.r	0.r	.
8F\	.	.	8f\	4ff\	4aa\	.	.	.	.	.	.	.	.	.	.	.	.	.	.	.	.	.
8F\	.	.	8f\	.	.	.	.	.	.	.	.	.	.	.	.	.	.	.	.	.	.	.
8F\J	.	.	8f\J	8ff\	8aa\	.	.	.	.	.	.	.	.	.	.	.	.	.	.	.	.	.
*Xtremolo	*	*	*Xtremolo	*	*	*	*	*	*	*	*	*	*	*	*	*	*	*	*	*	*	*
8c#X\L	4	.	8cc#X\L	8een\L	8gg\L	4c#X\	-vos	4en\	-vos	4en\	-vos	4gg\	-vos	.	.	.	.	.	.	.	.	.
8c#\J	.	.	8cc#\J	8ee\J	8gg\J	.	.	.	.	.	.	.	.	.	.	.	.	.	.	.	.	.
!	!	!	!	!LO:LB:g=original	!	!	!	!	!	!	!	!	!	!	!	!	!	!	!	!	!	!
=29	=29	=29	=29	=29	=29	=29	=29	=29	=29	=29	=29	=29	=29	=29	=29	=29	=29	=29	=29	=29	=29	=29
*tremolo	*	*	*	*	*	*	*	*	*	*	*ij	*	*	*	*	*	*	*	*	*	*	*
8d\L	3	.	2dd\	8dd\	8ff\	2d\	vi-	2d\	vi-	2dd\	vi-	2ff\	vi-	.	.	.	.	.	.	.	.	.
8d\	.	.	.	4dd\	4ff\	.	.	.	.	.	.	.	.	.	.	.	.	.	.	.	.	.
8d\	.	.	.	.	.	.	.	.	.	.	.	.	.	.	.	.	.	.	.	.	.	.
8d\J	.	.	.	8dd\	8ff\	.	.	.	.	.	.	.	.	.	.	.	.	.	.	.	.	.
*Xtremolo	*	*	*	*	*	*	*	*	*	*	*	*	*	*	*	*	*	*	*	*	*	*
8A\L	5	.	8a\L	8cc\L	8ee-X\L	4A\	-vos	4e-X\	-vos	4cc\	-vos	4ee-X\	-vos	.	.	.	.	.	.	.	.	.
*	*	*	*	*	*	*	*Xij	*	*	*	*Xij	*	*	*	*	*	*	*	*	*	*	*
8A\J	.	.	8a\J	8cc\J	8ee-\J	.	.	.	.	.	.	.	.	.	.	.	.	.	.	.	.	.
=30	=30	=30	=30	=30	=30	=30	=30	=30	=30	=30	=30	=30	=30	=30	=30	=30	=30	=30	=30	=30	=30	=30
*tremolo	*	*	*tremolo	*	*	*	*	*	*	*	*	*	*	*	*	*	*	*	*	*	*	*
8B-\L	3	.	8b-\L	8b-\	8dd\	4B-\	et	4d\	et	4cc\	et	4dd\	et	.	.	.	.	.	.	.	.	.
8B-\	.	.	8b-\	4b-\	4dd\	.	.	.	.	.	.	.	.	.	.	.	.	.	.	.	.	.
8B-\	.	.	8b-\	.	.	4B-\	mor-	4d\	mor-	4b-\	mor-	4dd\	mor-	.	.	.	.	.	.	.	.	.
8B-\J	.	.	8b-\J	8b-\	8dd\	.	.	.	.	.	.	.	.	.	.	.	.	.	.	.	.	.
*Xtremolo	*	*	*Xtremolo	*	*	*	*	*	*	*	*	*	*	*	*	*	*	*	*	*	*	*
8F#X\L	5	.	8f#X\L	8a/L	8cc\L	4F#X\	-tu-	4c\	-tu-	4a\	-tu-	4cc\	-tu-	.	.	.	.	.	.	.	.	.
8F#\J	.	.	8f#\J	8a/J	8cc\J	.	.	.	.	.	.	.	.	.	.	.	.	.	.	.	.	.
!LO:LB:g=original	!	!	!LO:LB:g=original	!	!	!	!	!	!	!	!	!	!	!	!	!	!	!	!	!	!	!
=31	=31	=31	=31	=31	=31	=31	=31	=31	=31	=31	=31	=31	=31	=31	=31	=31	=31	=31	=31	=31	=31	=31
4G\	3	.	4g\	4g/	4b-\	4G\	-os	4d\	-os	4d\	-os	4b-\	-os	.	.	.	.	.	.	.	.	.
4Cn\	7	.	4cn\	16g/LL	16b-\LL	4r	.	4r	.	4r	.	4r	.	.	.	.	.	.	.	.	.	.
.	.	.	.	16en/	16g\	.	.	.	.	.	.	.	.	.	.	.	.	.	.	.	.	.
.	.	.	.	16f/	16a\	.	.	.	.	.	.	.	.	.	.	.	.	.	.	.	.	.
.	.	.	.	16g/JJ	16b-\JJ	.	.	.	.	.	.	.	.	.	.	.	.	.	.	.	.	.
!	!	!	!	!	!LO:LB:g=original	!	!	!	!	!	!	!	!	!	!	!	!	!	!	!	!	!
=-	=-	=-	=-	=-	=-	=-	=-	=-	=-	=-	=-	=-	=-	=-	=-	=-	=-	=-	=-	=-	=-	=-
4r	.	.	4r	16a\LL	16cc\LL	4r	.	4r	.	4r	.	4r	.	.	.	.	.	.	.	.	.	.
.	.	.	.	16b-\	16dd\	.	.	.	.	.	.	.	.	.	.	.	.	.	.	.	.	.
.	.	.	.	16cc\	16een\	.	.	.	.	.	.	.	.	.	.	.	.	.	.	.	.	.
.	.	.	.	16dd\JJ	16ff\JJ	.	.	.	.	.	.	.	.	.	.	.	.	.	.	.	.	.
=32	=32	=32	=32	=32	=32	=32	=32	=32	=32	=32	=32	=32	=32	=32	=32	=32	=32	=32	=32	=32	=32	=32
*tremolo	*	*	*tremolo	*	*	*	*	*	*	*	*	*	*	*	*	*	*	*	*	*	*	*
8c\L	.	.	8cc\L	8een\	8gg\	2cn\	cu-	2c\	cu-	2g\	cu-	2een\	e-	2.r	4cc\	2.cc\	2.cc\	2.G\	2.eeX\	2.gg\	2.gg\	.
8c\	.	.	8cc\	4ee\	4gg\	.	.	.	.	.	.	.	.	.	.	.	.	.	.	.	.	.
8c\	.	.	8cc\	.	.	.	.	.	.	.	.	.	.	.	4r	.	.	.	.	.	.	.
8c\	.	.	8cc\	8ee\	8gg\	.	.	.	.	.	.	.	.	.	.	.	.	.	.	.	.	.
8c\	.	.	8cc\	16ff\LL	16aa\LL	4c\	-jus	4c\	-jus	4g\	-jus	4ee\	-jus	.	4r	.	.	.	.	.	.	.
.	.	.	.	16ee\	16gg\	.	.	.	.	.	.	.	.	.	.	.	.	.	.	.	.	.
8c\J	.	.	8cc\J	16dd\	16ff#X\	.	.	.	.	.	.	.	.	.	.	.	.	.	.	.	.	.
.	.	.	.	16ee\JJ	16gg\JJ	.	.	.	.	.	.	.	.	.	.	.	.	.	.	.	.	.
!	!	!	!	!LO:LB:g=original	!	!	!	!	!	!	!	!	!	!	!	!	!	!	!	!	!	!
=33	=33	=33	=33	=33	=33	=33	=33	=33	=33	=33	=33	=33	=33	=33	=33	=33	=33	=33	=33	=33	=33	=33
*	*	*	*	*tremolo	*	*	*	*	*	*	*	*	*	*	*	*	*	*	*	*	*	*
8d\L	5 3	.	8dd\L	16ff\LL	8aa\	4d\	re-	4c\	re-	4a\	re-	4ff\	re-	4Re/	4f/	2f/	2cc\	2A\	2ff\	2aa\	2aa\	.
.	.	.	.	16ff\	.	.	.	.	.	.	.	.	.	.	.	.	.	.	.	.	.	.
8d\	.	.	8dd\	16ff\	4aa\	.	.	.	.	.	.	.	.	.	.	.	.	.	.	.	.	.
.	.	.	.	16ff\	.	.	.	.	.	.	.	.	.	.	.	.	.	.	.	.	.	.
8d\	.	.	8dd\	16ff\	.	4d\	-gni	4c\	-gni	4a\	-gni	4ff\	-gni	8r	8r	.	.	.	.	.	.	.
.	.	.	.	16ff\	.	.	.	.	.	.	.	.	.	.	.	.	.	.	.	.	.	.
*	*	*	*	*	*	*	*	*	*	*	*	*	*	*tremolo	*	*	*	*	*	*	*	*
!	!	!	!	!	!	!	!	!	!	!	!	!	!	!LO:TX:b:t=...	!	!	!	!	!	!	!	!
8d\J	.	.	8dd\J	16ff\	16gg\LL	.	.	.	.	.	.	.	.	8Re/L	8f/L	.	.	.	.	.	.	.
.	.	.	.	16ff\JJ	16ff\JJ	.	.	.	.	.	.	.	.	.	.	.	.	.	.	.	.	.
*Xtremolo	*	*	*Xtremolo	*	*	*	*	*	*	*	*	*	*	*	*	*	*	*	*	*	*	*
8A\L	8 6	.	8a\L	16cc\LL	16een\LL	4A\	non	4c\	non	4a\	non	4cc\	non	8Re/	8f/	4f/	4cc\	4A\	4cc\	4ff\	4ccc\	.
.	.	.	.	16cc\	16ff\	.	.	.	.	.	.	.	.	.	.	.	.	.	.	.	.	.
8A\J	.	.	8a\J	16cc\	16cc\	.	.	.	.	.	.	.	.	8Re/J	8f/J	.	.	.	.	.	.	.
.	.	.	.	16cc\JJ	16ee-X\JJ	.	.	.	.	.	.	.	.	.	.	.	.	.	.	.	.	.
*	*	*	*	*Xtremolo	*	*	*	*	*	*	*	*	*	*Xtremolo	*	*	*	*	*	*	*	*
!	!	!	!	!	!	!	!	!	!	!	!	!LO:LB:g=original	!	!	!	!	!	!	!LO:LB:g=original	!	!	!
=34	=34	=34	=34	=34	=34	=34	=34	=34	=34	=34	=34	=34	=34	=34	=34	=34	=34	=34	=34	=34	=34	=34
!	!	!	!	!	!	!	!	!	!	!	!	!	!	!LO:TX:a:t=1.	!	!	!	!	!	!	!	!
8B-\L	6	.	8b-\L	8b-\L	16dd\LL	4B-\	e-	4d\	er	4b-\	e-	4b-\	e-	2.r	2.r	4b-\	4dd\	4B-\	4b-\	4dd\	4ddd\	.
.	.	.	.	.	16gg\	.	.	.	.	.	.	.	.	.	.	.	.	.	.	.	.	.
8B-\	.	.	8b-\	16dd\L	16bb-\	.	.	.	.	.	.	.	.	.	.	.	.	.	.	.	.	.
.	.	.	.	16b-\JJ	16gg\JJ	.	.	.	.	.	.	.	.	.	.	.	.	.	.	.	.	.
8c\	4	.	8cc\	16a\LL	16ff\LL	4c\	-rit	4c\	fi-	4a\	-rit	4ff\	-rit	.	.	4cc\	4cc\	4A\	4a\	4ff\	4ccc\	.
.	.	.	.	16cc\	16aa\	.	.	.	.	.	.	.	.	.	.	.	.	.	.	.	.	.
8c\	.	.	8cc\	16a\	16ff\	.	.	.	.	.	.	.	.	.	.	.	.	.	.	.	.	.
.	.	.	.	16cc\JJ	16aa\JJ	.	.	.	.	.	.	.	.	.	.	.	.	.	.	.	.	.
!LO:TX:t=P:problem=mixed beam	!	!	!LO:TX:t=P:problem=mixed beam	!	!	!	!	!	!	!	!	!	!	!	!	!	!	!	!	!	!	!
8C/	.	.	8c/	16b-\LL	16cc\LL	4C/	fi-	4c\	.	4g\	fi-	4een\	fi-	.	.	4cc\	4dd\	4G\	4g\	4eeX\	4bb-\	.
.	.	.	.	16cc\	16een\	.	.	.	.	.	.	.	.	.	.	.	.	.	.	.	.	.
8C/J	.	.	8c/J	16b-\	16cc\	.	.	.	.	.	.	.	.	.	.	.	.	.	.	.	.	.
.	.	.	.	16cc\JJ	16ee\JJ	.	.	.	.	.	.	.	.	.	.	.	.	.	.	.	.	.
=35	=35	=35	=35	=35	=35	=35	=35	=35	=35	=35	=35	=35	=35	=35	=35	=35	=35	=35	=35	=35	=35	=35
4F\	8	.	4f\	4a/	4ff\	4F\	-nis	4c\	-nis	4a\	-nis	4ff\	-nis	4Re/	4f/	4f/	4cc\	4A\	4a/	4ff\	4aa\	.
4D\	.	.	4d\	4d/	4dd\	4r	.	4r	.	4r	.	4r	.	4r	4d/	4d/	4dd\	4d\	4d/	4dd\	4ddd\	.
4D\	11	.	4d\	4d/	4dd\	4r	.	4r	.	4r	.	4r	.	4r	4d/	4d/	4dd\	4d\	4d/	4dd\	4ddd\	.
!	!	!	!	!	!LO:LB:g=original	!LO:LB:g=original	!	!	!	!	!	!	!	!	!	!	!	!	!	!	!	!
=36	=36	=36	=36	=36	=36	=36	=36	=36	=36	=36	=36	=36	=36	=36	=36	=36	=36	=36	=36	=36	=36	=36
!	!	!	!	!	!	!LO:TX:a:t=1.	!	!LO:TX:a:t=1.	!	!LO:TX:b:t=1.	!	!LO:TX:a:t=1.	!	!LO:TX:a:t=6.	!	!	!	!	!	!	!	!
2G\	.	.	2g\	2g/	2gg\	2.r	.	2.r	.	2.r	.	2.r	.	0.r	4d/	4d/	4dd\	4g\	4g/	4gg\	4ggg\	.
.	.	.	.	.	.	.	.	.	.	.	.	.	.	.	4r	4r	4r	4r	4r	4r	4r	.
!	!	!	!	!LO:SIC:v:s=4d/	!	!	!	!	!	!	!	!	!	!	!	!	!	!	!	!	!	!
4D\	.	.	4d\	4e-/	4dd\	.	.	.	.	.	.	.	.	.	4r	4r	4r	4r	4r	4r	4r	.
!	!	!	!	!	!	!	!	!	!	!LO:LB:g=original	!	!	!	!	!	!LO:LB:g=original	!	!	!	!LO:LB:g=original	!	!
=37	=37	=37	=37	=37	=37	=37	=37	=37	=37	=37	=37	=37	=37	=37	=37	=37	=37	=37	=37	=37	=37	=37
!	!	!	!	!	!	!	!	!	!	!	!	!	!	!	!LO:TX:a:t=5	!	!	!	!	!	!	!
8BB-'/L	.	.	8B-/L	4B-/	8b-/L	4G\	et	4g\	et	4g\	et	4gg\	et	.	0.r	2d/	2dd\	2g\	2g/	2gg\	2ggg\	.
8GG'/J	.	.	8G/J	.	8g/J	.	.	.	.	.	.	.	.	.	.	.	.	.	.	.	.	.
8GG'/L	.	.	8G/L	8G/L	8g/L	4G\	in	4g\	in	4g\	in	4gg\	in	.	.	.	.	.	.	.	.	.
16AA'/L	.	.	16A/L	16A/L	16a/L	.	.	.	.	.	.	.	.	.	.	.	.	.	.	.	.	.
16BB-'/JJ	.	.	16B-/JJ	16B-/JJ	16b-/JJ	.	.	.	.	.	.	.	.	.	.	.	.	.	.	.	.	.
!	!	!	!	!	!	!	!	!	!	!	!	!	!	!	!	!LO:TX:a:t=bis	!	!	!	!	!	!
16C'\LL	.	.	16c\LL	16d/LL	16cc\LL	4D\	spi-	4d\	spi-	4d\	Spi-	4dd\	spi-	.	.	4d/	4dd\	4d\	4d/	4dd\	4ddd\	.
16D'\	.	.	16d\	16d/	16dd\	.	.	.	.	.	.	.	.	.	.	.	.	.	.	.	.	.
16E-X'\	.	.	16e-X\	16e-X/	16ee-X\	.	.	.	.	.	.	.	.	.	.	.	.	.	.	.	.	.
16F#X'\JJ	.	.	16f#X\JJ	16f#X/JJ	16ff#X\JJ	.	.	.	.	.	.	.	.	.	.	.	.	.	.	.	.	.
!LO:LB:g=original	!	!	!	!LO:LB:g=original	!	!	!	!LO:LB:g=original	!	!	!	!	!	!	!	!	!LO:LB:g=original	!	!	!	!	!
=38	=38	=38	=38	=38	=38	=38	=38	=38	=38	=38	=38	=38	=38	=38	=38	=38	=38	=38	=38	=38	=38	=38
!	!	!	!	!	!	!	!	!	!	!	!	!	!	!	!	!	!	!LO:TX:a:t=bis	!LO:TX:a:t=bis	!	!	!
2G|>\	.	.	2g\	2g/	2gg\	4BB-/	-ri-	4B-\	-ri-	4B-/	-ri-	4b-\	-ri-	.	.	4d/	4dd\	4B-\	4B-/	4b-\	4bb-\	.
.	.	.	.	.	.	4GG/	-tum	4G/	-tum	4G/	-tum	4g\	-tum	.	.	4d/	4dd\	4G\	4G/	4g\	4gg\	.
4D'\	.	.	4d\	4d/	4dd\	4r	.	4r	.	4r	.	4r	.	.	.	4r	4r	4r	4r	4r	4r	.
!	!	!	!	!	!	!	!	!	!	!	!	!	!	!	!	!	!	!LO:LB:g=original	!	!	!	!
=39	=39	=39	=39	=39	=39	=39	=39	=39	=39	=39	=39	=39	=39	=39	=39	=39	=39	=39	=39	=39	=39	=39
*	*	*	*	*	*	*	*ij	*	*	*	*ij	*	*	*	*	*	*	*	*	*	*	*
!	!	!	!	!	!	!	!	!	!	!	!	!	!	!	!	!LO:TX:a:t=P:problem=2 takty zapisane jako repetycja	!	!LO:TX:a:t=P:problem=2 takty zapisane jako repetycja	!LO:TX:a:t=P:problem=2 takty zapisane jako repetycja	!	!	!
8BB-'/L	.	.	8B-/L	8B-/L	8b-/L	4G\	spi-	4g\	Spi-	4g\	Spi-	4gg\	Spi-	.	.	2d/	2dd\	2g\	2g/	2gg\	2ggg\	.
8GG'/J	.	.	8G/J	8G/J	8g/J	.	.	.	.	.	.	.	.	.	.	.	.	.	.	.	.	.
8GG'/L	.	.	8G/L	8G/L	8g/L	4G\	-ri-	4g\	-ri-	4g\	-ri-	4gg\	-ri-	.	.	.	.	.	.	.	.	.
16AA'/L	.	.	16A/L	16A/L	16a/L	.	.	.	.	.	.	.	.	.	.	.	.	.	.	.	.	.
16BB-'/JJ	.	.	16B-/JJ	16B-/JJ	16b-/JJ	.	.	.	.	.	.	.	.	.	.	.	.	.	.	.	.	.
16C'\LL	.	.	16c\LL	16c/LL	16cc\LL	4D\	-tum	4d\	-tum	4d\	-tum	4dd\	-tum	.	.	4d/	4dd\	4d\	4d/	4dd\	4ddd\	.
*	*	*	*	*	*	*	*Xij	*	*	*	*Xij	*	*	*	*	*	*	*	*	*	*	*
16D'\	.	.	16d\	16d/	16dd\	.	.	.	.	.	.	.	.	.	.	.	.	.	.	.	.	.
16E-X'\	.	.	16e-X\	16e-X/	16ee-X\	.	.	.	.	.	.	.	.	.	.	.	.	.	.	.	.	.
16F#X'\JJ	.	.	16f#X\JJ	16f#X/JJ	16ff#X\JJ	.	.	.	.	.	.	.	.	.	.	.	.	.	.	.	.	.
!	!	!	!LO:LB:g=original	!	!	!	!	!	!	!	!	!	!	!	!	!	!	!	!	!	!	!
=40	=40	=40	=40	=40	=40	=40	=40	=40	=40	=40	=40	=40	=40	=40	=40	=40	=40	=40	=40	=40	=40	=40
4G\	.	.	4g\	4g/	4gg\	4BB-/	san-	4B-\	Sanc-	4B-/	san-	4b-\	san-	1.r	.	4d/	4dd\	4B-\	4B-/	4b-\	4bb-\	.
4G\	.	.	4G/	4g/	4b-\	4GG/	-ctum	4G/	-tum	4G/	-ctum	4g\	-ctum	.	.	4d/	4dd\	4G\	4G/	4g\	4gg\	.
4G\	.	.	4g\	4b-/	4dd\	4r	.	4r	.	4r	.	4r	.	.	.	4r	4r	4r	4r	4r	4r	.
=41	=41	=41	=41	=41	=41	=41	=41	=41	=41	=41	=41	=41	=41	=41	=41	=41	=41	=41	=41	=41	=41	=41
*tremolo	*	*	*tremolo	*tremolo	*tremolo	*	*	*	*	*	*	*	*	*	*	*	*	*	*	*	*	*
!	!	!	!	!LO:TX:a:t=......	!	!	!	!	!	!	!	!	!	!	!	!	!	!	!	!	!	!
8Fn\L	7	.	8fn\L	8cc\L	8ee-\L	4F\	do-	4f\	do-	4cc\	Do-	4ee-\	do-	.	2.r	2.g/	2.cc\	2.e-\	2.cc\	2.ee-X\	2.ccc\	.
8Fn\	.	.	8fn\	8cc\	8ee-\	.	.	.	.	.	.	.	.	.	.	.	.	.	.	.	.	.
8Fn\	.	.	8fn\	8cc\	8ee-\	4F\	-mi-	4f\	-mi-	4cc\	-mi-	4ee-\	-mi-	.	.	.	.	.	.	.	.	.
8Fn\	.	.	8fn\	8cc\	8ee-\	.	.	.	.	.	.	.	.	.	.	.	.	.	.	.	.	.
8Fn\	.	.	8fn\	8cc\	8ee-\	8F\	-num	8f\	-num	8cc\	-num	8ee-\L	-num	.	.	.	.	.	.	.	.	.
8Fn\J	.	.	8fn\J	8cc\J	8ee-\J	8F\	et	8f\	et	8cc\	et	8ee-\J	.	.	.	.	.	.	.	.	.	.
=42	=42	=42	=42	=42	=42	=42	=42	=42	=42	=42	=42	=42	=42	=42	=42	=42	=42	=42	=42	=42	=42	=42
*	*	*	*	*	*	*	*	*	*	*	*	*	*	*	*	*tremolo	*tremolo	*tremolo	*tremolo	*tremolo	*tremolo	*
!	!	!	!	!	!	!	!	!	!	!	!	!	!	!	!	!	!LO:TX:a:t=......	!	!	!LO:TX:a:t=....	!	!
8G\L	7	.	8f\L	8f/ 8ccL	8aa\L	4F\	vi-	4c\	vi-	4a\	vi-	4ee-\	et	8Re/L	8f/L	8f/L	8cc\L	8e-\L	8cc\L	8ee-\L	8ccc\L	.
8G\	.	.	8f\	8f/ 8cc	8aa\	.	.	.	.	.	.	.	.	16Re/L	16f/L	8f/	8cc\	8e-\	8cc\	8ee-\	8ccc\	.
.	.	.	.	.	.	.	.	.	.	.	.	.	.	16Re/JJ	16f/JJ	.	.	.	.	.	.	.
*	*	*	*	*	*	*	*	*	*	*	*	*	*	*tremolo	*tremolo	*	*	*	*	*	*	*
!	!	!	!	!	!	!	!	!	!	!	!	!	!	!LO:TX:b:t=....	!LO:TX:b:t=....	!	!	!	!	!	!	!
8G\	.	.	8f\	8f/ 8cc	8aa\	4F\	-fi-	4c\	-vi-	4a\	-vi-	4ee-\	vi-	8Re/L	8f/L	8f/	8cc\	8e-\	8cc\	8ee-\	8ccc\	.
8G\	.	.	8f\	8f/ 8cc	8aa\	.	.	.	.	.	.	.	.	8Re/	8f/	8f/	8cc\	8e-\	8cc\	8ee-\	8ccc\	.
8G\	.	.	8f\	8f/ 8cc	8aa\	4F\	-can-	8c\	-fi-	8a\	-fi-	8ee-\L	-fi-	8Re/	8f/	8f/	8cc\	8e-\	8cc\	8ee-\	8ccc\	.
8G\J	.	.	8f\J	8f/ 8ccJ	8aa\J	.	.	8c\	-can-	8a\	-can-	8ee-\J	-can-	8Re/J	8f/J	8f/J	8cc\J	8e-\J	8cc\J	8ee-\J	8ccc\J	.
*Xtremolo	*	*	*Xtremolo	*Xtremolo	*Xtremolo	*	*	*	*	*	*	*	*	*Xtremolo	*Xtremolo	*Xtremolo	*Xtremolo	*Xtremolo	*Xtremolo	*Xtremolo	*Xtremolo	*
!	!	!	!	!LO:LB:g=original	!LO:LB:g=original	!	!	!	!	!	!	!	!	!	!LO:LB:g=original	!	!	!	!	!	!	!
=43	=43	=43	=43	=43	=43	=43	=43	=43	=43	=43	=43	=43	=43	=43	=43	=43	=43	=43	=43	=43	=43	=43
2B-'\	.	.	2b-\	2b-\	2bb-\	4B-\	-tem	4B-\	-tem	4b-\	-tem	4dd\	tem	4Ra/	4b-\	4B-/	4b-\	4d\	4b-\	4dd\	4bb-\	.
.	.	.	.	.	.	4r	.	4r	.	4r	.	4r	.	4r	4r	4r	4r	4r	4r	4r	4r	.
4F'\	.	.	4f\	4f/	4ff\	4r	.	4r	.	4r	.	4r	.	4r	4r	4r	4r	4r	4r	4r	4r	.
!	!	!	!	!	!	!LO:LB:g=original	!	!	!	!LO:LB:g=original	!	!	!	!	!	!	!	!	!	!	!	!
=44	=44	=44	=44	=44	=44	=44	=44	=44	=44	=44	=44	=44	=44	=44	=44	=44	=44	=44	=44	=44	=44	=44
8D'/L	.	.	8d\L	8d/L	8dd\L	2B-\	qui	2B-\	qui-	2b-\	Qui-	2bb-\	qui-	4Ra/	2b-\	2b-\	2b-\	2B-\	2b-\	2bb-\	2bb-\	.
8BB-'/J	.	.	8B-\J	8B-/J	8b-\J	.	.	.	.	.	.	.	.	.	.	.	.	.	.	.	.	.
8BB-'/L	.	.	8B-\L	8B-/L	8b-\L	.	.	.	.	.	.	.	.	4r	.	.	.	.	.	.	.	.
16C'/L	.	.	16c\L	16c/L	16cc\L	.	.	.	.	.	.	.	.	.	.	.	.	.	.	.	.	.
16D'/JJ	.	.	16d\JJ	16d/JJ	16dd\JJ	.	.	.	.	.	.	.	.	.	.	.	.	.	.	.	.	.
!	!	!	!	!LO:LB:g=original	!	!	!	!	!	!	!	!	!	!	!	!	!	!	!	!	!	!
=-	=-	=-	=-	=-	=-	=-	=-	=-	=-	=-	=-	=-	=-	=-	=-	=-	=-	=-	=-	=-	=-	=-
16E-'\LL	.	.	16e-\LL	16e-/LL	16ee-\LL	4F\	ex	4f\	-cum	4f\	-cum	4ff\	-cum	4r	4f/	4f/	4ff\	4F\	4f/	4ff\	4ff\	.
16F'\	.	.	16f\	16f/	16ff\	.	.	.	.	.	.	.	.	.	.	.	.	.	.	.	.	.
16G'\	.	.	16g\	16g/	16gg\	.	.	.	.	.	.	.	.	.	.	.	.	.	.	.	.	.
16A'\JJ	.	.	16a\JJ	16a/JJ	16aa\JJ	.	.	.	.	.	.	.	.	.	.	.	.	.	.	.	.	.
!LO:LB:g=original	!	!	!	!	!	!	!	!	!	!	!	!LO:LB:g=original	!	!	!	!	!	!	!	!	!	!
=45	=45	=45	=45	=45	=45	=45	=45	=45	=45	=45	=45	=45	=45	=45	=45	=45	=45	=45	=45	=45	=45	=45
!LO:TX:a:t=P:problem=2 takty zapisane jako repetycja	!	!	!	!	!	!	!	!	!	!	!	!	!	!	!	!	!	!	!	!	!	!
2B-'\	.	.	2b-\	2b-\	2bb-\	4D\	pa-	4d\	pa-	4d\	pa-	4dd\	pa-	4Ra/	4f/	4f/	4dd\	4D/	4d/	4dd\	4dd\	.
.	.	.	.	.	.	4BB-/	-tre	4B-\	-tre	4B-/	-tre	4b-\	-tre	4Ra/	4B-/	4d/	4b-\	4BB-/	4B-/	4b-\	4b-\	.
4F'\	.	.	4f\	4f/	4ff\	4r	.	4r	.	4r	.	4r	.	4r	4r	4r	4r	4r	4r	4r	4r	.
!	!	!	!	!	!	!	!	!LO:LB:g=original	!	!	!	!	!	!	!	!	!	!	!	!	!LO:LB:g=original	!
=46	=46	=46	=46	=46	=46	=46	=46	=46	=46	=46	=46	=46	=46	=46	=46	=46	=46	=46	=46	=46	=46	=46
!	!	!	!	!	!	!	!	!	!	!	!	!	!	!	!	!LO:TX:a:t=P:problem=2 takty zapisane jako repetycja	!	!	!	!	!	!
8D'/L	.	.	8d\L	8d/L	8dd\L	2B-\	et	2B-\	et	2b-\	et	2bb-\	et	4Ra/	2b-\	2b-\	2b-\	2B-\	2b-\	2bb-\	2bb-\	.
8BB-'/J	.	.	8B-\J	8B-/J	8b-\J	.	.	.	.	.	.	.	.	.	.	.	.	.	.	.	.	.
8BB-'/L	.	.	8B-\L	8B-/L	8b-\L	.	.	.	.	.	.	.	.	4r	.	.	.	.	.	.	.	.
16C'/L	.	.	16c\L	16c/L	16cc\L	.	.	.	.	.	.	.	.	.	.	.	.	.	.	.	.	.
16D'/JJ	.	.	16d\JJ	16d/JJ	16dd\JJ	.	.	.	.	.	.	.	.	.	.	.	.	.	.	.	.	.
16E-'\LL	.	.	16e-\LL	16e-/LL	16ee-\LL	4F\	fi-	4f\	fi-	4f\	li-	4ff\	fi-	4Re/	4f/	4f/	4ff\	4F\	4f/	4ff\	4ff\	.
16F'\	.	.	16f\	16f/	16ff\	.	.	.	.	.	.	.	.	.	.	.	.	.	.	.	.	.
16G'\	.	.	16g\	16g/	16gg\	.	.	.	.	.	.	.	.	.	.	.	.	.	.	.	.	.
16A'\JJ	.	.	16a\JJ	16a/JJ	16aa\JJ	.	.	.	.	.	.	.	.	.	.	.	.	.	.	.	.	.
!	!	!	!	!	!	!	!	!	!	!	!	!	!	!	!	!	!	!	!LO:LB:g=original	!	!	!
=47	=47	=47	=47	=47	=47	=47	=47	=47	=47	=47	=47	=47	=47	=47	=47	=47	=47	=47	=47	=47	=47	=47
4B-\	.	.	4b-\	4b-\	4bb-\	4D\	-li-	4d\	-li-	4d\	-li-	4dd\	-li-	4Ra/	4d/	4f/	4dd\	4D/	4d/	4dd\	4dd\	.
4BB-/	.	.	4B-/	4B-/	4b-\	4BB-/	-o	4B-\	-o	4B-/	-o	4b-\	-o	4Ra/	4B-/	4d/	4b-\	4BB-/	4B-/	4b-\	4b-\	.
4d\	.	.	4dd\	4dd\	4dd\	4d\	et	4d\	et	4dd\	det	4dd\	et	4r	4r	4r	4r	4d\	4d/	4dd\	4ddd\	.
!	!	!	!	!	!	!	!	!	!	!	!	!	!	!LO:LB:g=original	!	!	!	!	!	!	!	!
=48	=48	=48	=48	=48	=48	=48	=48	=48	=48	=48	=48	=48	=48	=48	=48	=48	=48	=48	=48	=48	=48	=48
!	!	!	!	!	!	!	!	!	!	!	!	!	!	!LO:TX:a:t=4.	!	!LO:TX:a:t=4	!LO:TX:a:t=4	!	!	!	!	!
8f'\L	.	.	8ff\L	8ff\L	8ff\L	4f\	u-	4f\	u-	4ff\	U-	4ff\	u-	0.r	0.r	0.r	0.r	4f\	4f/	4ff\	4fff\	.
8f'\	.	.	8ff\	8ff\	8ff\	.	.	.	.	.	.	.	.	.	.	.	.	.	.	.	.	.
8d'\	.	.	8dd\	8dd\	8dd\	4d\	-num	4d\	-nam	4dd\	-nam	4dd\	-num	.	.	.	.	4d\	4d/	4dd\	4ddd\	.
8d'\	.	.	8dd\	8dd\	8dd\	.	.	.	.	.	.	.	.	.	.	.	.	.	.	.	.	.
8B-'\	.	.	8b-\	8b-\	8b-\	4B-\	sanc-	4B-\	San-	4b-\	S(anc)-	4b-\	san-	.	.	.	.	4B-\	4B-/	4b-\	4bb-\	.
8B-'\J	.	.	8b-\J	8b-\J	8b-\J	.	.	.	.	.	.	.	.	.	.	.	.	.	.	.	.	.
!	!	!	!LO:LB:g=original	!	!LO:LB:g=original	!	!	!	!	!	!	!	!	!	!	!	!	!	!	!	!	!
=49	=49	=49	=49	=49	=49	=49	=49	=49	=49	=49	=49	=49	=49	=49	=49	=49	=49	=49	=49	=49	=49	=49
!	!	!	!	!	!	!LO:SIC:v:l:s=-tam	!	!	!	!	!	!	!	!	!	!	!	!	!	!	!	!
8d'\L	.	.	8dd\L	8dd\L	8dd\L	4d\	-tum	4d\	-ctam	4dd\	-tam	4dd\	-ct(um)	.	.	.	.	4d\	4d/	4dd\	4ddd\	.
8d'\	.	.	8dd\	8dd\	8dd\	.	.	.	.	.	.	.	.	.	.	.	.	.	.	.	.	.
8B-'\	.	.	8b-\	8b-\	8b-\	4B-\	Ca-	4B-\	Ca-	4b-\	Ca-	4b-\	Ca-	.	.	.	.	4B-\	4B-/	4b-\	4bb-\	.
8B-'\	.	.	8b-\	8b-\	8b-\J	.	.	.	.	.	.	.	.	.	.	.	.	.	.	.	.	.
8F'\	.	.	8f\	8f\	8f/L	4F\	-tho-	4F/	-to-	4f\	-to-	4f/	-to-	.	.	.	.	4F\	4F/	4f/	4ff\	.
8F'\J	.	.	8f\J	8f\J	8f/J	.	.	.	.	.	.	.	.	.	.	.	.	.	.	.	.	.
!	!	!	!	!LO:LB:g=original	!	!	!	!	!	!	!	!	!	!	!	!	!	!	!	!	!	!
=50	=50	=50	=50	=50	=50	=50	=50	=50	=50	=50	=50	=50	=50	=50	=50	=50	=50	=50	=50	=50	=50	=50
8B-'\L	.	.	8b-\L	8b-/L	8b-/L	4B-\	-li-	4B-\	-li-	4b-\	-li-	4b-\	-li-	.	.	.	.	4B-\	4B-/	4b-\	4bb-\	.
8B-'\	.	.	8b-\	8b-/	8b-/	.	.	.	.	.	.	.	.	.	.	.	.	.	.	.	.	.
!	!	!	!	!	!	!	!	!LO:SIC:v:l:s=-cam	!	!	!	!	!	!	!	!	!	!	!	!	!	!
8F'\	.	.	8f\	8f/	8f/	4F\	-cam	4f\	-um	4f\	-cam	4ff\	-cam	.	.	.	.	4F\	4f/	4ff\	4ff\	.
8F'\	.	.	8f\	8f/	8f/	.	.	.	.	.	.	.	.	.	.	.	.	.	.	.	.	.
8D'\	.	.	8d\	8d/	8d/	4D\	et	4d\	et	4d\	et	4dd\	et	.	.	.	.	4D\	4d/	4dd\	4dd\	.
8D'\J	.	.	8d\J	8d/J	8d/J	.	.	.	.	.	.	.	.	.	.	.	.	.	.	.	.	.
!	!	!	!	!	!	!	!	!	!	!	!	!	!	!	!	!	!	!LO:LB:g=original	!	!LO:LB:g=original	!	!
=51	=51	=51	=51	=51	=51	=51	=51	=51	=51	=51	=51	=51	=51	=51	=51	=51	=51	=51	=51	=51	=51	=51
8F'\L	.	.	8f\L	8f/L	8f/L	4F\	a-	4f\	A-	4f\	A-	4ff\	a-	.	.	.	.	4F\	4f/	4ff\	4ff\	.
8F'\	.	.	8f\	8f/	8f/	.	.	.	.	.	.	.	.	.	.	.	.	.	.	.	.	.
8D'\	.	.	8d\	8d/	8d/	4D\	-pos-	4d\	-pos-	4d\	-pos-	4dd\	-po-	.	.	.	.	4D\	4d/	4dd\	4dd\	.
8D'\	.	.	8d\	8d/	8d/	.	.	.	.	.	.	.	.	.	.	.	.	.	.	.	.	.
8BB-'\	.	.	8B-\	8B-/	8B-/	4BB-/	-to-	4B-\	-to-	4B-/	-to-	4b-\	-sto-	.	.	.	.	4BB-\	4B-/	4b-\	4b-\	.
8BB-'\J	.	.	8B-\J	8B-/J	8B-/J	.	.	.	.	.	.	.	.	.	.	.	.	.	.	.	.	.
!	!	!	!	!	!	!	!	!	!	!LO:LB:g=original	!	!	!	!	!	!	!LO:LB:g=original	!	!	!	!	!
=52	=52	=52	=52	=52	=52	=52	=52	=52	=52	=52	=52	=52	=52	=52	=52	=52	=52	=52	=52	=52	=52	=52
4F\	7	.	4F/	4f/	4f/	4F\	-li-	4A\	-li-	4e-\	-li-	4cc\	-li-	4r	4r	4f/	4cc\	4F\	4f/	4ee-\	4ff\	.
!	!	!	!	!	!	!	!	!LO:SIC:v:l:s=cam	!	!	!	!	!	!	!	!	!	!	!	!	!	!
4F\	.	.	4f\	4f/ 4cc	4f\ 4ee-	4F\	-cam	4A\	-cum	4e-\	-cam	4cc\	-cam	4Re/	4f/	4f/	4cc\	4e-\	4cc\	4ee-\	4eee-\	.
4F\	.	.	4f\	4f/ 4cc	4f\ 4ee-	4F\	e-	4A\	e-	4e-\	e-	4cc\	e-	4Re/	4f/	4f/	4cc\	4e-\	4cc\	4ee-\	4eee-\	.
!	!	!	!	!	!	!LO:LB:g=original	!	!	!	!	!	!	!	!	!	!	!	!	!	!	!	!
=53	=53	=53	=53	=53	=53	=53	=53	=53	=53	=53	=53	=53	=53	=53	=53	=53	=53	=53	=53	=53	=53	=53
!LO:TX:a:t=P:problem=1 takt zapisany jako repetycja	!	!	!	!	!	!	!	!LO:SIC:v:l:s=cle	!	!	!	!	!	!	!	!	!	!	!	!	!	!
4F\	7	.	4f\	4f/ 4cc	4f\ 4ee-	4F\	-cle-	4A\	-de-	4e-\	-cle-	4cc\	-cle-	4r	4r	4f/	4cc\	4e-\	4cc\	4ee-\	4eee-\	.
4F\	.	.	4f\	4f/ 4ee-X	4cc\ 4aa	4F\	-si-	4A\	-si-	4e-\	-si-	4cc\	-si-	4Re/	4f/	4f/	4cc\	4e-\	4cc\	4ee-\	4eee-\	.
4F\	.	.	4f\	4f/ 4ee-	4cc\ 4aa	4F\	-am	4A\	-am	4e-\	-am	4cc\	-am	4Re/	4f/	4f/	4cc\	4e-\	4cc\	4ee-\	4eee-\	.
=54	=54	=54	=54	=54	=54	=54	=54	=54	=54	=54	=54	=54	=54	=54	=54	=54	=54	=54	=54	=54	=54	=54
*	*	*	*	*	*	*	*ij	*	*	*	*ij	*	*	*	*	*	*	*	*	*	*	*
4B-\	3	.	4B-/ 4f	4f/ 4dd	4dd\ 4bb-	4B-\	e-	4B-\	e-	4f\	e-	4dd\	E-	4Ra/	4b-\	4d/	4b-\	4d\	4b-\	4dd\	4ddd\	.
!	!	!	!	!	!	!	!	!LO:SIC:v:l:s=cle	!	!	!	!	!	!	!	!	!	!	!	!	!	!
4BB-/	6	.	4B-/ 4f	4dd\ 4ff	4b-\ 4aa-X	4B-\	-cle-	4B-\	-de-	4f\	-cle-	4dd\	-ćle-	4Ra/	4b-\	4B-/	4b-\	4d\	4ff\	4aa-X\	4ddd\	.
4BB-/	7	.	4B-/ 4f	4dd\ 4ff	4b-\ 4aa-	4B-\	-si-	4B-\	-si-	4f\	-si-	4dd\	-si-	4Ra/	4b-\	4B-/	4b-\	4d\	4ff\	4aa-\	4ddd\	.
!LO:LB:g=original	!	!	!	!	!	!	!	!	!	!	!	!LO:LB:g=original	!	!	!	!LO:LB:g=original	!	!	!	!	!	!
=55	=55	=55	=55	=55	=55	=55	=55	=55	=55	=55	=55	=55	=55	=55	=55	=55	=55	=55	=55	=55	=55	=55
!	!	!	!	!	!	!	!	!	!	!	!	!	!	!LO:TX:a:t=tram	!	!	!	!	!	!	!	!
2BB-;</	67	.	2B-;>/ 2f	2dd;>\ 2ff	2b-;\ 2aa-X	2B-;\	-am	2B-;\	-am	2f;\	-am	2dd;>\	-am	2Ra;</	2b-;>\	2B-;>/	2b-;>\	2d;>\	2ff;\	2aa-X;\	2ddd;>\	.
*	*	*	*	*	*	*	*Xij	*	*	*	*Xij	*	*	*	*	*	*	*	*	*	*	*
4r	.	.	4r	4r	4r	4r	.	4r	.	4r	.	4r	.	4r	4r	4r	4r	4r	4r	4r	4r	.
!	!	!	!	!LO:PB:g=original	!LO:LB:g=original	!	!	!LO:LB:g=original	!	!	!	!	!	!	!LO:LB:g=original	!	!	!	!	!	!	!
=56	=56	=56	=56	=56	=56	=56	=56	=56	=56	=56	=56	=56	=56	=56	=56	=56	=56	=56	=56	=56	=56	=56
*tremolo	*	*	*tremolo	*tremolo	*	*	*	*	*	*	*	*	*	*	*	*	*	*	*	*	*	*
!	!	!	!	!	!	!	!	!	!	!	!	!	!	!LO:TX:a:t=2.	!LO:TX:a:t=2	!	!	!	!	!	!LO:TX:a:t=2.	!
8E-\L	3	.	8e-\L	16b-\LL	16gg\LL	2.E-\	et	2.B-\	et	2.g\	Et	2.b-\	et	1.r	1.r	2.B-/	2.b-\	2.G\	2.ee-\	2.gg\	1.r	.
.	.	.	.	16b-\	16aa\J	.	.	.	.	.	.	.	.	.	.	.	.	.	.	.	.	.
8E-\	.	.	8e-\	16b-\	8bb-\J	.	.	.	.	.	.	.	.	.	.	.	.	.	.	.	.	.
.	.	.	.	16b-\	.	.	.	.	.	.	.	.	.	.	.	.	.	.	.	.	.	.
8E-\	.	.	8e-\	16b-\	8r	.	.	.	.	.	.	.	.	.	.	.	.	.	.	.	.	.
.	.	.	.	16b-\	.	.	.	.	.	.	.	.	.	.	.	.	.	.	.	.	.	.
8E-\	.	.	8e-\	16b-\	8gg\L	.	.	.	.	.	.	.	.	.	.	.	.	.	.	.	.	.
.	.	.	.	16b-\	.	.	.	.	.	.	.	.	.	.	.	.	.	.	.	.	.	.
8E-\	.	.	8e-\	16b-\	8bb-\	.	.	.	.	.	.	.	.	.	.	.	.	.	.	.	.	.
.	.	.	.	16b-\	.	.	.	.	.	.	.	.	.	.	.	.	.	.	.	.	.	.
8E-\J	.	.	8e-\J	16b-\	8gg\J	.	.	.	.	.	.	.	.	.	.	.	.	.	.	.	.	.
.	.	.	.	16b-\JJ	.	.	.	.	.	.	.	.	.	.	.	.	.	.	.	.	.	.
=57	=57	=57	=57	=57	=57	=57	=57	=57	=57	=57	=57	=57	=57	=57	=57	=57	=57	=57	=57	=57	=57	=57
8F\L	3	.	8f\L	16cc\LL	16aan\LL	2F\	vi-	2c\	vi-	2a\	vi-	2cc\	vi-	.	.	2.f/	2.cc\	2.A\	2.cc\	2.aanX\	.	.
.	.	.	.	16cc\	16bb-\J	.	.	.	.	.	.	.	.	.	.	.	.	.	.	.	.	.
8F\	.	.	8f\	16cc\	8ccc\J	.	.	.	.	.	.	.	.	.	.	.	.	.	.	.	.	.
.	.	.	.	16cc\	.	.	.	.	.	.	.	.	.	.	.	.	.	.	.	.	.	.
8F\	.	.	8f\	16cc\	8r	.	.	.	.	.	.	.	.	.	.	.	.	.	.	.	.	.
.	.	.	.	16cc\	.	.	.	.	.	.	.	.	.	.	.	.	.	.	.	.	.	.
8F\	.	.	8f\	16cc\	8aa\L	.	.	.	.	.	.	.	.	.	.	.	.	.	.	.	.	.
.	.	.	.	16cc\	.	.	.	.	.	.	.	.	.	.	.	.	.	.	.	.	.	.
8F\	.	.	8f\	16cc\	8ccc\	4F\	-tam	4c\	-tam	4a\	-tam	4cc\	-tam	.	.	.	.	.	.	.	.	.
.	.	.	.	16cc\	.	.	.	.	.	.	.	.	.	.	.	.	.	.	.	.	.	.
8F\J	.	.	8f\J	16cc\	8aa\J	.	.	.	.	.	.	.	.	.	.	.	.	.	.	.	.	.
.	.	.	.	16cc\JJ	.	.	.	.	.	.	.	.	.	.	.	.	.	.	.	.	.	.
*	*	*	*	*Xtremolo	*	*	*	*	*	*	*	*	*	*	*	*	*	*	*	*	*	*
!	!	!	!	!	!	!	!	!	!	!	!	!	!	!	!	!	!	!	!LO:LB:g=original	!	!	!
=58	=58	=58	=58	=58	=58	=58	=58	=58	=58	=58	=58	=58	=58	=58	=58	=58	=58	=58	=58	=58	=58	=58
*	*	*	*	*	*	*	*ij	*	*	*	*	*	*	*	*	*	*	*	*	*	*	*
8B-\L	3	.	8b-\L	16dd\LL	16bb-\LL	2.B-\	et	2.d\	et	2.b-\	et	2.dd\	et	4Ra/	4b-\	2.b-\	2.dd\	2.d\	2.dd\	2.bb-\	2.ddd\	.
.	.	.	.	16ee-\J	16ccc\J	.	.	.	.	.	.	.	.	.	.	.	.	.	.	.	.	.
8B-\	.	.	8b-\	8ff\J	8ddd\J	.	.	.	.	.	.	.	.	.	.	.	.	.	.	.	.	.
8B-\	.	.	8b-\	8r	8r	.	.	.	.	.	.	.	.	8r	8r	.	.	.	.	.	.	.
8B-\	.	.	8b-\	8dd\L	8bb-\L	.	.	.	.	.	.	.	.	8Ra/L	16b-\LL	.	.	.	.	.	.	.
.	.	.	.	.	.	.	.	.	.	.	.	.	.	.	16b-\JJ	.	.	.	.	.	.	.
8B-\	.	.	8b-\	8ff\	8ddd\	.	.	.	.	.	.	.	.	8Ra/	8b-\L	.	.	.	.	.	.	.
8B-\J	.	.	8b-\J	8dd\J	8bb-\J	.	.	.	.	.	.	.	.	8Ra/J	8b-\J	.	.	.	.	.	.	.
*	*	*	*Xtremolo	*	*	*	*	*	*	*	*	*	*	*	*	*	*	*	*	*	*	*
=59	=59	=59	=59	=59	=59	=59	=59	=59	=59	=59	=59	=59	=59	=59	=59	=59	=59	=59	=59	=59	=59	=59
!	!	!	!LO:N:vis=2	!	!LO:TX:a:t=P:problem=takt zapisany jako repetycja	!	!	!	!	!	!	!	!	!	!	!	!	!	!	!	!	!
8G\L	5	.	2.g\	16dd\LL	16bb-\LL	2G\	vi-	2f\	vi-	2b-\	Vi-	2dd\	vi-	4Ra/	4b-\	2.b-\	2.dd\	2.d\	2.dd\	2.bb-\	2.ddd\	.
.	.	.	.	16ee-\J	16ccc\J	.	.	.	.	.	.	.	.	.	.	.	.	.	.	.	.	.
8G\	.	.	.	8ff\J	8ddd\J	.	.	.	.	.	.	.	.	.	.	.	.	.	.	.	.	.
8G\	.	.	.	8r	8r	.	.	.	.	.	.	.	.	8r	8r	.	.	.	.	.	.	.
*	*	*	*	*	*	*	*	*	*	*	*	*	*	*tremolo	*	*	*	*	*	*	*	*
!	!	!	!	!	!	!	!	!	!	!	!	!	!	!LO:TX:b:t=...	!	!	!	!	!	!	!	!
8G\	.	.	.	8dd\L	8bb-\L	.	.	.	.	.	.	.	.	8Ra/L	16b-\LL	.	.	.	.	.	.	.
.	.	.	.	.	.	.	.	.	.	.	.	.	.	.	16b-\JJ	.	.	.	.	.	.	.
8G\	.	.	.	8ff\	8ddd\	4G\	-tam	4f\	-tam	4b-\	-tam	4dd\	-tam	8Ra/	8b-\L	.	.	.	.	.	.	.
*	*	*	*	*	*	*	*Xij	*	*	*	*	*	*	*	*	*	*	*	*	*	*	*
8G\J	.	.	.	8dd\J	8bb-\J	.	.	.	.	.	.	.	.	8Ra/J	8b-\J	.	.	.	.	.	.	.
*	*	*	*	*	*	*	*	*	*	*	*	*	*	*Xtremolo	*	*	*	*	*	*	*	*
=60	=60	=60	=60	=60	=60	=60	=60	=60	=60	=60	=60	=60	=60	=60	=60	=60	=60	=60	=60	=60	=60	=60
*	*	*	*tremolo	*	*	*	*	*	*	*	*	*	*	*	*	*	*	*	*	*	*	*
!LO:TX:a:t=P:problem=4 takty zapisane jako repetycja	!	!	!LO:TX:a:t=P:problem=4 takty zapisane jako repetycja	!	!	!	!	!	!	!	!	!	!	!LO:TX:a:t=1.	!LO:TX:a:t=1	!	!	!	!	!	!	!
8E-\L	3	.	8e-\L	16ee-\LL	16ccc\LL	2.E-\	ven-	2.g\	ven-	2.b-\	ven-	2.dd\	ven-	2.r	2.r	2.f/	2.cc\	2.d\	2.dd\	2.bb-\	2.ddd\	.
.	.	.	.	16ff\J	16ddd\J	.	.	.	.	.	.	.	.	.	.	.	.	.	.	.	.	.
8E-\	.	.	8e-\	8gg\J	8eee-\J	.	.	.	.	.	.	.	.	.	.	.	.	.	.	.	.	.
8E-\	.	.	8e-\	8r	8r	.	.	.	.	.	.	.	.	.	.	.	.	.	.	.	.	.
8E-\	.	.	8e-\	8ee-\L	8ccc\L	.	.	.	.	.	.	.	.	.	.	.	.	.	.	.	.	.
8E-\	.	.	8e-\	8gg\	8eee-\	.	.	.	.	.	.	.	.	.	.	.	.	.	.	.	.	.
8E-\J	.	.	8e-\J	8ee-\J	8ccc\J	.	.	.	.	.	.	.	.	.	.	.	.	.	.	.	.	.
!	!	!	!	!LO:LB:g=original	!	!	!	!	!	!	!	!	!	!	!	!	!	!	!	!	!	!
=61	=61	=61	=61	=61	=61	=61	=61	=61	=61	=61	=61	=61	=61	=61	=61	=61	=61	=61	=61	=61	=61	=61
8F\L	3	.	8f\L	16cc\LL	16aa\LL	2F\	-tu-	2f\	-tu-	2a\	-tu-	2cc\	-tu-	4Re/	4f/	2.f/	2.cc\	2.c\	2.cc\	2.aa\	2.ccc\	.
.	.	.	.	16dd\J	16bb-\J	.	.	.	.	.	.	.	.	.	.	.	.	.	.	.	.	.
8F\	.	.	8f\	8ee-\J	8ccc\J	.	.	.	.	.	.	.	.	.	.	.	.	.	.	.	.	.
8F\	.	.	8f\	8r	8r	.	.	.	.	.	.	.	.	8r	8r	.	.	.	.	.	.	.
*	*	*	*	*	*	*	*	*	*	*	*	*	*	*tremolo	*	*	*	*	*	*	*	*
!	!	!	!	!	!	!	!	!	!	!	!	!	!	!LO:TX:b:t=...	!	!	!	!	!	!	!	!
8F\	.	.	8f\	8cc\L	8aa\L	.	.	.	.	.	.	.	.	8Re/L	16f/LL	.	.	.	.	.	.	.
.	.	.	.	.	.	.	.	.	.	.	.	.	.	.	16f/JJ	.	.	.	.	.	.	.
8F\	.	.	8f\	8ee-\	8ccc\	4F\	-ri	4f\	-ri	4a\	-ri	4cc\	-ri	8Re/	8f/L	.	.	.	.	.	.	.
8F\J	.	.	8f\J	8cc\J	8aa\J	.	.	.	.	.	.	.	.	8Re/J	8f/J	.	.	.	.	.	.	.
*	*	*	*	*	*	*	*	*	*	*	*	*	*	*Xtremolo	*	*	*	*	*	*	*	*
!	!	!	!	!	!LO:PB:g=original	!	!	!	!	!LO:LB:g=original	!	!	!	!	!	!	!	!	!	!	!	!
=62	=62	=62	=62	=62	=62	=62	=62	=62	=62	=62	=62	=62	=62	=62	=62	=62	=62	=62	=62	=62	=62	=62
!	!	!	!	!	!	!	!	!	!	!	!	!	!	!	!	!	!	!	!LO:TX:a:t=P:problem=4 takty zapisane jako repetycja	!	!	!
8B-\L	3	.	8b-\L	16dd\LL	16bb-\LL	2.B-\	Sae-	2.d\	Sae-	2.b-\	Sae-	2.dd\	Se-	4Re/ 4Ra	4b-\	2.b-\	2.dd\	2.d\	2.dd\	2.bb-\	2.ddd\	.
.	.	.	.	16ee-\J	16ccc\J	.	.	.	.	.	.	.	.	.	.	.	.	.	.	.	.	.
8B-\	.	.	8b-\	8ff\J	8ddd\J	.	.	.	.	.	.	.	.	.	.	.	.	.	.	.	.	.
8B-\	.	.	8b-\	8r	8r	.	.	.	.	.	.	.	.	8r	8r	.	.	.	.	.	.	.
*	*	*	*	*	*	*	*	*	*	*	*	*	*	*tremolo	*	*	*	*	*	*	*	*
!	!	!	!	!	!	!	!	!	!	!	!	!	!	!LO:TX:b:t=...	!	!	!	!	!	!	!	!
8B-\	.	.	8b-\	8dd\L	8bb-\L	.	.	.	.	.	.	.	.	8Re/ 8RaL	16b-\LL	.	.	.	.	.	.	.
.	.	.	.	.	.	.	.	.	.	.	.	.	.	.	16b-\JJ	.	.	.	.	.	.	.
8B-\	.	.	8b-\	8ff\	8ddd\	.	.	.	.	.	.	.	.	8Re/ 8Ra	8b-\L	.	.	.	.	.	.	.
8B-\J	.	.	8b-\J	8dd\J	8bb-\J	.	.	.	.	.	.	.	.	8Re/ 8RaJ	8b-\J	.	.	.	.	.	.	.
*	*	*	*Xtremolo	*	*	*	*	*	*	*	*	*	*	*Xtremolo	*	*	*	*	*	*	*	*
=63	=63	=63	=63	=63	=63	=63	=63	=63	=63	=63	=63	=63	=63	=63	=63	=63	=63	=63	=63	=63	=63	=63
!	!	!	!LO:N:vis=2	!	!	!	!	!	!	!	!	!	!	!LO:TX:a:t=P:problem=1 takt zapisany jako repetycja	!	!	!	!	!	!	!	!
8G\L	5	.	2.g\	16dd\LL	16bb-\LL	2.G\	-cu-	2.f\	-cu-	2.b-\	-cu-	2.dd\	-cu-	4Re/ 4Ra	4b-\	2.b-\	2.dd\	2.d\	2.dd\	2.bb-\	2.ddd\	.
.	.	.	.	16ee-\J	16ccc\J	.	.	.	.	.	.	.	.	.	.	.	.	.	.	.	.	.
8G\	.	.	.	8ff\J	8ddd\J	.	.	.	.	.	.	.	.	.	.	.	.	.	.	.	.	.
8G\	.	.	.	8r	8r	.	.	.	.	.	.	.	.	8r	8r	.	.	.	.	.	.	.
*	*	*	*	*	*	*	*	*	*	*	*	*	*	*tremolo	*	*	*	*	*	*	*	*
!	!	!	!	!	!	!	!	!	!	!	!	!	!	!LO:TX:b:t=...	!	!	!	!	!	!	!	!
8G\	.	.	.	8dd\L	8bb-\L	.	.	.	.	.	.	.	.	8Re/ 8RaL	16b-\LL	.	.	.	.	.	.	.
.	.	.	.	.	.	.	.	.	.	.	.	.	.	.	16b-\JJ	.	.	.	.	.	.	.
8G\	.	.	.	8ff\	8ddd\	.	.	.	.	.	.	.	.	8Re/ 8Ra	8b-\L	.	.	.	.	.	.	.
8G\J	.	.	.	8dd\J	8bb-\J	.	.	.	.	.	.	.	.	8Re/ 8RaJ	8b-\J	.	.	.	.	.	.	.
*	*	*	*	*	*	*	*	*	*	*	*	*	*	*Xtremolo	*	*	*	*	*	*	*	*
!	!	!	!	!	!	!	!	!	!	!	!	!	!	!	!LO:LB:g=original	!	!	!LO:LB:g=original	!	!	!	!
=64	=64	=64	=64	=64	=64	=64	=64	=64	=64	=64	=64	=64	=64	=64	=64	=64	=64	=64	=64	=64	=64	=64
*	*	*	*tremolo	*	*	*	*	*	*	*	*	*	*	*	*	*	*	*	*	*	*	*
!	!	!	!	!	!	!	!	!	!	!	!	!	!	!LO:TX:a:t=1.	!LO:TX:a:t=1	!	!	!	!	!	!	!
!	!	!	!	!	!	!	!	!	!	!	!	!	!	!LO:TX:b:t=V&colon;S&colon;	!	!	!	!	!	!	!	!
8E-\L	8 6	.	8e-\L	16ee-\LL	16ccc\LL	2.E-\	-li	2.g\	-li	2.b-\	-la	2.dd\	-li	2.r	2.r	2.b-\	2.dd\	2.d\	2.dd\	2.bb-\	2.ddd\	.
.	.	.	.	16ff\J	16ddd\J	.	.	.	.	.	.	.	.	.	.	.	.	.	.	.	.	.
8E-\	.	.	8e-\	8gg\J	8eee-\J	.	.	.	.	.	.	.	.	.	.	.	.	.	.	.	.	.
8E-\	.	.	8e-\	8r	8r	.	.	.	.	.	.	.	.	.	.	.	.	.	.	.	.	.
8E-\	.	.	8e-\	8ee-\L	8ccc\L	.	.	.	.	.	.	.	.	.	.	.	.	.	.	.	.	.
8E-\	.	.	8e-\	8gg\	8eee-\	.	.	.	.	.	.	.	.	.	.	.	.	.	.	.	.	.
8E-\J	.	.	8e-\J	8ee-\J	8ccc\J	.	.	.	.	.	.	.	.	.	.	.	.	.	.	.	.	.
!	!	!	!LO:LB:g=original	!LO:LB:g=original	!	!	!	!	!	!	!	!	!	!LO:PB:g=original	!	!	!LO:LB:g=original	!	!	!	!LO:LB:g=original	!
=65	=65	=65	=65	=65	=65	=65	=65	=65	=65	=65	=65	=65	=65	=65	=65	=65	=65	=65	=65	=65	=65	=65
8F\L	5 3	.	8f\L	16cc\LL	16aa\LL	2.E-\	A-	2.f\	A-	2.a\	A-	2.dd\	A-	4Re/	4f/	2.f/	2.cc\	2.c\	2.cc\	2.aa\	2.ccc\	.
.	.	.	.	16dd\J	16bb-\J	.	.	.	.	.	.	.	.	.	.	.	.	.	.	.	.	.
8F\	.	.	8f\	8ee-\J	8ccc\J	.	.	.	.	.	.	.	.	.	.	.	.	.	.	.	.	.
8F\	.	.	8f\	8r	8r	.	.	.	.	.	.	.	.	8r	8r	.	.	.	.	.	.	.
8F\	.	.	8f\	8cc\L	8aa\L	.	.	.	.	.	.	.	.	8Re/L	16f/LL	.	.	.	.	.	.	.
.	.	.	.	.	.	.	.	.	.	.	.	.	.	.	16f/JJ	.	.	.	.	.	.	.
8F\	.	.	8f\	8ee-\	8ccc\	.	.	.	.	.	.	.	.	8Re/	8f/L	.	.	.	.	.	.	.
8F\J	.	.	8f\J	8cc\J	8aa\J	.	.	.	.	.	.	.	.	8Re/J	8f/J	.	.	.	.	.	.	.
*	*	*	*Xtremolo	*	*	*	*	*	*	*	*	*	*	*	*	*	*	*	*	*	*	*
*Xtremolo	*	*	*	*	*	*	*	*	*	*	*	*	*	*	*	*	*	*	*	*	*	*
=66	=66	=66	=66	=66	=66	=66	=66	=66	=66	=66	=66	=66	=66	=66	=66	=66	=66	=66	=66	=66	=66	=66
!	!	!	!	!LO:TX:t=P:problem=mixed beam	!	!	!	!	!	!	!	!	!	!	!	!	!	!	!	!	!	!
8B-\L	.	.	8b-\L	8b-\L	4f\ 4dd 4bb-	4B-\	-men	4f\	-men	4b-\	-men	4b-\	-men	4Ra/	4b-\	4d/	4b-\	4d\	4dd\	4bb-\	4bb-\	.
!LO:TX:t=P:problem=mixed beam	!	!	!LO:TX:t=P:problem=mixed beam	!	!	!	!	!	!	!	!	!	!	!	!	!	!	!	!	!	!	!
16BB-/L	.	.	16B-/L	16B-/L	.	.	.	.	.	.	.	.	.	.	.	.	.	.	.	.	.	.
16C/JJ	.	.	16c/JJ	16c/JJ	.	.	.	.	.	.	.	.	.	.	.	.	.	.	.	.	.	.
!LO:TX:a:i:t=Organo	!	!	!	!	!	!	!	!	!	!	!	!	!	!	!	!	!	!	!	!	!	!
16D\LL	.	.	16d\LL	16d/LL	4r	4r	.	4r	.	4r	.	4r	.	4r	4r	4r	4r	4r	4r	4r	4r	.
16C\	.	.	16c\	16c/	.	.	.	.	.	.	.	.	.	.	.	.	.	.	.	.	.	.
16D\	.	.	16d\	16d/	.	.	.	.	.	.	.	.	.	.	.	.	.	.	.	.	.	.
16E-\JJ	.	.	16e-\JJ	16e-/JJ	.	.	.	.	.	.	.	.	.	.	.	.	.	.	.	.	.	.
16F\LL	.	.	16f\LL	16f/LL	4f\ 4cc 4aa	4F\	a-	4f\	a-	4e-\	a-	4cc\	a-	4Re/	4f/	4f/	4cc\	4c\	4cc\	4aa\	4ccc\	.
16G\	.	.	16g\	16g/	.	.	.	.	.	.	.	.	.	.	.	.	.	.	.	.	.	.
16A\	.	.	16a\	16a/	.	.	.	.	.	.	.	.	.	.	.	.	.	.	.	.	.	.
16F\JJ	.	.	16f\JJ	16f/JJ	.	.	.	.	.	.	.	.	.	.	.	.	.	.	.	.	.	.
!	!	!	!	!	!LO:LB:g=original	!LO:LB:g=original	!	!	!	!	!	!	!	!	!	!	!	!	!	!LO:LB:g=original	!	!
=67	=67	=67	=67	=67	=67	=67	=67	=67	=67	=67	=67	=67	=67	=67	=67	=67	=67	=67	=67	=67	=67	=67
!	!	!	!	!LO:TX:t=P:problem=mixed beam	!	!	!	!	!	!	!	!	!	!	!	!	!	!	!	!	!LO:TX:a:t=P:problem=1 takt zapisany jako repetycja	!
8B-\L	.	.	8b-\L	8b-\L	4f\ 4dd 4bb-	4B-\	-men	4f\	-men	4f\	-men	4dd\	-men	4Ra/	4b-\	4b-\	4dd\	4d\	4dd\	4bb-\	4bb-\	.
!LO:TX:t=P:problem=mixed beam	!	!	!LO:TX:t=P:problem=mixed beam	!	!	!	!	!	!	!	!	!	!	!	!	!	!	!	!	!	!	!
16BB-/L	.	.	16B-/L	16B-/L	.	.	.	.	.	.	.	.	.	.	.	.	.	.	.	.	.	.
16C/JJ	.	.	16c/JJ	16c/JJ	.	.	.	.	.	.	.	.	.	.	.	.	.	.	.	.	.	.
16D\LL	.	.	16d\LL	16d/LL	4r	4r	.	4r	.	4r	.	4r	.	4r	4r	4r	4r	4r	4r	4r	4r	.
16C\	.	.	16c\	16c/	.	.	.	.	.	.	.	.	.	.	.	.	.	.	.	.	.	.
16D\	.	.	16d\	16d/	.	.	.	.	.	.	.	.	.	.	.	.	.	.	.	.	.	.
16E-\JJ	.	.	16e-\JJ	16e-/JJ	.	.	.	.	.	.	.	.	.	.	.	.	.	.	.	.	.	.
16F\LL	.	.	16f\LL	16f/LL	4f\ 4cc 4aa	4F\	a-	4f\	A-	4e-\	A-	4cc\	A-	4Re/	4f/	4f/	4cc\	4c\	4cc\	4aa\	4ccc\	.
16G\	.	.	16g\	16g/	.	.	.	.	.	.	.	.	.	.	.	.	.	.	.	.	.	.
16A\	.	.	16a\	16a/	.	.	.	.	.	.	.	.	.	.	.	.	.	.	.	.	.	.
16F\JJ	.	.	16f\JJ	16f/JJ	.	.	.	.	.	.	.	.	.	.	.	.	.	.	.	.	.	.
!	!	!	!	!LO:LB:g=original	!	!	!	!	!	!	!	!	!	!	!	!	!	!	!	!	!	!
=68	=68	=68	=68	=68	=68	=68	=68	=68	=68	=68	=68	=68	=68	=68	=68	=68	=68	=68	=68	=68	=68	=68
4B-\	.	.	4b-\	4B-/ 4f 4dd	4f\ 4dd 4bb-	4BB-/	-men.	4f\	-men	4d\	-men.	4b-\	-men	4Ra/	8b-\L	4d/	4b-\	4d\	4dd\	4bb-\	4bb-\	.
.	.	.	.	.	.	.	.	.	.	.	.	.	.	.	8f\J	.	.	.	.	.	.	.
4BB-/	.	.	4B-/ 4f	4B-/ 4f 4dd	4f\ 4dd 4bb-	4r	.	4r	.	4r	.	4r	.	4Ra/	8b-\L	4d/	4b-\	4d\	4dd\	4bb-\	4bb-\	.
.	.	.	.	.	.	.	.	.	.	.	.	.	.	.	8f\	.	.	.	.	.	.	.
4BB-/	.	.	4B-/ 4f	4B-/ 4f 4dd	4f\ 4dd 4bb-	4r	.	4r	.	4r	.	4r	.	4Ra/	8d\	4d/	4b-\	4d\	4dd\	4bb-\	4bb-\	.
.	.	.	.	.	.	.	.	.	.	.	.	.	.	.	8f\J	.	.	.	.	.	.	.
=69	=69	=69	=69	=69	=69	=69	=69	=69	=69	=69	=69	=69	=69	=69	=69	=69	=69	=69	=69	=69	=69	=69
!	!	!	!	!	!	!LO:TX:a:t=1.	!	!LO:TX:a:t=1	!	!	!	!LO:TX:a:t=1.	!	!	!	!	!	!	!	!	!	!
2BB-/	.	.	2B-/ 2f	2B-/ 2f 2dd	2f\ 2dd 2bb-	2.r	.	2.r	.	2.r	.	2.r	.	2Ra/	2B-/	2d/	2b-\	2d\	2dd\	2bb-\	2bb-\	.
4r	.	.	4r	4r	4r	.	.	.	.	.	.	.	.	4r	4r	4r	4r	4r	4r	4r	4r	.
==;	==	==	==	==;	==;	==	==	==;	==	==	==	==	==	==	==	==	==	==	==;	==	==	==
*-	*-	*-	*-	*-	*-	*-	*-	*-	*-	*-	*-	*-	*-	*-	*-	*-	*-	*-	*-	*-	*-	*-
!!!system-decoration: [(s1,s2,s3,s4)][(s5,s6,s7)][(s8)][(s9,s10,s11,s12)][(s13,s14,s15)]s16
!!!ENC: Berenika Jozajtis
!!!END: 2020-10-14
!!!RDF**kern: < = below
!!!RDF**kern: > = above
!!!RDF**kern: | = vertical stroke
!!!ENC: Marta Chmielewska
!!!END: 2022-01-19
